;FLAVOR:Marlin
;TIME:28795
;Filament used: 20.5937m
;Layer height: 0.2
;MINX:19.8
;MINY:25.3
;MINZ:0.2
;MAXX:190.2
;MAXY:184.7
;MAXZ:2
;Generated with Cura_SteamEngine 4.2.1
M140 S60
M105
M190 S60
M104 S200
M105
M109 S200
M82 ;absolute extrusion mode
G21 ;metric values
G90 ;absolute positioning
M82 ;set extruder to absolute mode
M107 ;start with the fan off
G28 X0 Y0 ;move X/Y to min endstops
G28 Z0 ;move Z to min endstops
G1 Z15.0 F100 ;move the platform down 15mm
G92 E0 ;zero the extruded length
G1 F200 E3 ;extrude 3mm of feed stock
G92 E0 ;zero the extruded length again
G1 F100
M117 Printing...
G5
M141 S28
G92 E0
G92 E0
G1 F2400 E-6
;LAYER_COUNT:10
;LAYER:0
M106 S255
M204 S3000
M205 X10 Y10
G0 F3000 X21.631 Y26.15 Z0.2
M204 S1800
M205 X8 Y8
;TYPE:SKIRT
G1 F2400 E0
G1 X22.116 Y25.833 E0.02698
G1 X22.64 Y25.586 E0.05395
G1 X23.193 Y25.414 E0.08092
G1 X23.765 Y25.319 E0.10792
G1 X24.164 Y25.3 E0.12652
G1 X185.836 Y25.3 E7.65465
G1 X186.414 Y25.34 E7.68162
G1 X186.981 Y25.459 E7.7086
G1 X187.526 Y25.655 E7.73557
G1 X188.039 Y25.924 E7.76254
G1 X188.51 Y26.261 E7.78951
G1 X188.806 Y26.53 E7.80813
G1 X188.97 Y26.694 E7.81893
G1 X189.35 Y27.131 E7.8459
G1 X189.667 Y27.616 E7.87288
G1 X189.914 Y28.14 E7.89985
G1 X190.086 Y28.693 E7.92682
G1 X190.181 Y29.265 E7.95382
G1 X190.2 Y29.664 E7.97242
G1 X190.2 Y180.336 E14.98834
G1 X190.16 Y180.914 E15.01532
G1 X190.041 Y181.481 E15.0423
G1 X189.845 Y182.026 E15.06926
G1 X189.576 Y182.539 E15.09624
G1 X189.239 Y183.01 E15.1232
G1 X188.97 Y183.306 E15.14183
G1 X188.806 Y183.47 E15.15263
G1 X188.369 Y183.85 E15.17959
G1 X187.884 Y184.167 E15.20657
G1 X187.36 Y184.414 E15.23355
G1 X186.807 Y184.586 E15.26052
G1 X186.235 Y184.681 E15.28751
G1 X185.836 Y184.7 E15.30611
G1 X24.164 Y184.7 E22.83424
G1 X23.586 Y184.66 E22.86122
G1 X23.019 Y184.541 E22.8882
G1 X22.474 Y184.345 E22.91516
G1 X21.961 Y184.076 E22.94214
G1 X21.49 Y183.739 E22.9691
G1 X21.194 Y183.47 E22.98773
G1 X21.03 Y183.306 E22.99853
G1 X20.65 Y182.869 E23.02549
G1 X20.333 Y182.384 E23.05247
G1 X20.086 Y181.86 E23.07945
G1 X19.914 Y181.307 E23.10642
G1 X19.819 Y180.735 E23.13341
G1 X19.8 Y180.336 E23.15201
G1 X19.8 Y29.664 E30.16793
G1 X19.84 Y29.086 E30.19491
G1 X19.959 Y28.519 E30.22189
G1 X20.155 Y27.974 E30.24886
G1 X20.424 Y27.461 E30.27583
G1 X20.761 Y26.99 E30.3028
G1 X21.03 Y26.694 E30.32142
G1 X21.194 Y26.53 E30.33222
G1 X21.631 Y26.15 E30.35919
M204 S3000
M205 X10 Y10
G0 F3000 X21.999 Y26.574
M204 S1800
M205 X8 Y8
G1 F2400 X22.455 Y26.286 E30.3843
G1 X22.948 Y26.069 E30.40938
G1 X23.468 Y25.927 E30.43448
G1 X24.164 Y25.86 E30.46704
G1 X185.836 Y25.86 E37.99517
G1 X186.374 Y25.9 E38.02029
G1 X186.9 Y26.019 E38.0454
G1 X187.402 Y26.214 E38.07048
G1 X187.871 Y26.482 E38.09563
G1 X188.41 Y26.926 E38.12815
G1 X188.574 Y27.09 E38.13895
G1 X188.926 Y27.499 E38.16407
G1 X189.214 Y27.955 E38.18919
G1 X189.431 Y28.448 E38.21427
G1 X189.573 Y28.968 E38.23937
G1 X189.64 Y29.664 E38.27193
G1 X189.64 Y180.336 E45.28785
G1 X189.6 Y180.874 E45.31297
G1 X189.481 Y181.4 E45.33808
G1 X189.286 Y181.902 E45.36316
G1 X189.018 Y182.371 E45.38831
G1 X188.574 Y182.91 E45.42082
G1 X188.41 Y183.074 E45.43162
G1 X188.001 Y183.426 E45.45675
G1 X187.545 Y183.714 E45.48186
G1 X187.052 Y183.931 E45.50695
G1 X186.532 Y184.073 E45.53205
G1 X185.836 Y184.14 E45.5646
G1 X24.164 Y184.14 E53.09273
G1 X23.626 Y184.1 E53.11785
G1 X23.1 Y183.981 E53.14296
G1 X22.598 Y183.786 E53.16804
G1 X22.129 Y183.518 E53.19319
G1 X21.59 Y183.074 E53.22571
G1 X21.426 Y182.91 E53.23651
G1 X21.074 Y182.501 E53.26164
G1 X20.786 Y182.045 E53.28675
G1 X20.569 Y181.552 E53.31183
G1 X20.427 Y181.032 E53.33693
G1 X20.36 Y180.336 E53.36949
G1 X20.36 Y29.664 E60.38541
G1 X20.4 Y29.126 E60.41053
G1 X20.519 Y28.6 E60.43564
G1 X20.714 Y28.098 E60.46072
G1 X20.982 Y27.629 E60.48587
G1 X21.426 Y27.09 E60.51839
G1 X21.59 Y26.926 E60.52919
G1 X21.999 Y26.574 E60.55431
M204 S3000
M205 X10 Y10
G0 F3000 X22.364 Y27.001
M204 S1800
M205 X8 Y8
G1 F2400 X22.788 Y26.744 E60.5774
G1 X23.249 Y26.559 E60.60053
G1 X23.732 Y26.45 E60.62359
G1 X24.164 Y26.42 E60.64375
G1 X185.836 Y26.42 E68.17188
G1 X186.33 Y26.46 E68.19495
G1 X186.812 Y26.579 E68.21807
G1 X187.268 Y26.773 E68.24115
G1 X187.687 Y27.038 E68.26423
G1 X188.014 Y27.322 E68.2844
G1 X188.178 Y27.486 E68.2952
G1 X188.499 Y27.864 E68.31829
G1 X188.756 Y28.288 E68.34138
G1 X188.941 Y28.749 E68.36451
G1 X189.05 Y29.232 E68.38756
G1 X189.08 Y29.664 E68.40773
G1 X189.08 Y180.336 E75.42365
G1 X189.04 Y180.83 E75.44673
G1 X188.921 Y181.312 E75.46984
G1 X188.727 Y181.768 E75.49292
G1 X188.462 Y182.187 E75.516
G1 X188.178 Y182.514 E75.53617
G1 X188.014 Y182.678 E75.54697
G1 X187.636 Y182.999 E75.57006
G1 X187.212 Y183.256 E75.59315
G1 X186.751 Y183.441 E75.61628
G1 X186.268 Y183.55 E75.63934
G1 X185.836 Y183.58 E75.6595
G1 X24.164 Y183.58 E83.18763
G1 X23.67 Y183.54 E83.2107
G1 X23.188 Y183.421 E83.23382
G1 X22.732 Y183.227 E83.2569
G1 X22.313 Y182.962 E83.27998
G1 X21.986 Y182.678 E83.30015
G1 X21.822 Y182.514 E83.31095
G1 X21.501 Y182.136 E83.33404
G1 X21.244 Y181.712 E83.35713
G1 X21.059 Y181.251 E83.38026
G1 X20.95 Y180.768 E83.40331
G1 X20.92 Y180.336 E83.42348
G1 X20.92 Y29.664 E90.4394
G1 X20.96 Y29.17 E90.46247
G1 X21.079 Y28.688 E90.48559
G1 X21.273 Y28.232 E90.50867
G1 X21.538 Y27.813 E90.53175
G1 X21.822 Y27.486 E90.55192
G1 X21.986 Y27.322 E90.56272
G1 X22.364 Y27.001 E90.58581
M204 S3000
M205 X10 Y10
G0 F3000 X22.726 Y27.43
M204 S1800
M205 X8 Y8
G1 F2400 X23.116 Y27.208 E90.60671
G1 X23.539 Y27.059 E90.62759
G1 X24.164 Y26.98 E90.65692
G1 X185.836 Y26.98 E98.18505
G1 X186.283 Y27.02 E98.20595
G1 X186.715 Y27.138 E98.2268
G1 X187.12 Y27.332 E98.24771
G1 X187.618 Y27.718 E98.27705
G1 X187.782 Y27.882 E98.28785
G1 X188.07 Y28.226 E98.30874
G1 X188.292 Y28.616 E98.32964
G1 X188.441 Y29.039 E98.35052
G1 X188.52 Y29.664 E98.37985
G1 X188.52 Y180.336 E105.39577
G1 X188.48 Y180.783 E105.41667
G1 X188.362 Y181.215 E105.43752
G1 X188.168 Y181.62 E105.45843
G1 X187.782 Y182.118 E105.48777
G1 X187.618 Y182.282 E105.49857
G1 X187.274 Y182.57 E105.51946
G1 X186.884 Y182.792 E105.54036
G1 X186.461 Y182.941 E105.56124
G1 X185.836 Y183.02 E105.59058
G1 X24.164 Y183.02 E113.1187
G1 X23.717 Y182.98 E113.1396
G1 X23.285 Y182.862 E113.16045
G1 X22.88 Y182.668 E113.18136
G1 X22.382 Y182.282 E113.2107
G1 X22.218 Y182.118 E113.2215
G1 X21.93 Y181.774 E113.24239
G1 X21.708 Y181.384 E113.26329
G1 X21.559 Y180.961 E113.28417
G1 X21.48 Y180.336 E113.3135
G1 X21.48 Y29.664 E120.32942
G1 X21.52 Y29.217 E120.35032
G1 X21.638 Y28.785 E120.37117
G1 X21.832 Y28.38 E120.39208
G1 X22.218 Y27.882 E120.42142
G1 X22.382 Y27.718 E120.43222
G1 X22.726 Y27.43 E120.45311
M204 S3000
M205 X10 Y10
G0 F3000 X23.084 Y27.864
M204 S1800
M205 X8 Y8
G1 F2400 X23.435 Y27.681 E120.47155
G1 X23.815 Y27.571 E120.48997
G1 X24.164 Y27.54 E120.50628
G1 X185.836 Y27.54 E128.03441
G1 X186.229 Y27.58 E128.0528
G1 X186.607 Y27.698 E128.07124
G1 X186.953 Y27.889 E128.08964
G1 X187.222 Y28.114 E128.10597
G1 X187.386 Y28.278 E128.11677
G1 X187.636 Y28.584 E128.13517
G1 X187.819 Y28.935 E128.1536
G1 X187.929 Y29.315 E128.17202
G1 X187.96 Y29.664 E128.18834
G1 X187.96 Y180.336 E135.20426
G1 X187.92 Y180.729 E135.22265
G1 X187.802 Y181.107 E135.24109
G1 X187.611 Y181.453 E135.2595
G1 X187.386 Y181.722 E135.27582
G1 X187.222 Y181.886 E135.28662
G1 X186.916 Y182.136 E135.30502
G1 X186.565 Y182.319 E135.32346
G1 X186.185 Y182.429 E135.34188
G1 X185.836 Y182.46 E135.35819
G1 X24.164 Y182.46 E142.88632
G1 X23.771 Y182.42 E142.90471
G1 X23.393 Y182.302 E142.92315
G1 X23.047 Y182.111 E142.94155
G1 X22.778 Y181.886 E142.95788
G1 X22.614 Y181.722 E142.96868
G1 X22.364 Y181.416 E142.98708
G1 X22.181 Y181.065 E143.00551
G1 X22.071 Y180.685 E143.02394
G1 X22.04 Y180.336 E143.04025
G1 X22.04 Y29.664 E150.05617
G1 X22.08 Y29.271 E150.07456
G1 X22.198 Y28.893 E150.093
G1 X22.389 Y28.547 E150.11141
G1 X22.614 Y28.278 E150.12774
G1 X22.778 Y28.114 E150.13854
G1 X23.084 Y27.864 E150.15693
M204 S3000
M205 X10 Y10
G0 F3000 X23.437 Y28.304
M204 S1800
M205 X8 Y8
G1 F2400 X23.741 Y28.165 E150.1725
G1 X24.164 Y28.1 E150.19243
G1 X185.836 Y28.1 E157.72055
G1 X186.168 Y28.14 E157.73612
G1 X186.48 Y28.257 E157.75164
G1 X186.826 Y28.51 E157.7716
G1 X186.99 Y28.674 E157.7824
G1 X187.196 Y28.937 E157.79795
G1 X187.335 Y29.241 E157.81352
G1 X187.4 Y29.664 E157.83345
G1 X187.4 Y180.336 E164.84937
G1 X187.36 Y180.668 E164.86494
G1 X187.243 Y180.98 E164.88045
G1 X186.99 Y181.326 E164.90041
G1 X186.826 Y181.49 E164.91121
G1 X186.563 Y181.696 E164.92677
G1 X186.259 Y181.835 E164.94233
G1 X185.836 Y181.9 E164.96226
G1 X24.164 Y181.9 E172.49039
G1 X23.832 Y181.86 E172.50596
G1 X23.52 Y181.743 E172.52147
G1 X23.174 Y181.49 E172.54143
G1 X23.01 Y181.326 E172.55223
G1 X22.804 Y181.063 E172.56779
G1 X22.665 Y180.759 E172.58335
G1 X22.6 Y180.336 E172.60328
G1 X22.6 Y29.664 E179.6192
G1 X22.64 Y29.332 E179.63477
G1 X22.757 Y29.02 E179.65029
G1 X23.01 Y28.674 E179.67025
G1 X23.174 Y28.51 E179.68105
G1 X23.437 Y28.304 E179.6966
M204 S3000
M205 X10 Y10
G0 F3000 X23.57 Y28.906
M204 S1800
M205 X8 Y8
G1 F2400 X23.779 Y28.754 E179.70864
G1 X24.024 Y28.672 E179.72067
G1 X24.164 Y28.66 E179.72721
G1 X185.836 Y28.66 E187.25533
G1 X186.091 Y28.7 E187.26735
G1 X186.323 Y28.815 E187.27941
G1 X186.43 Y28.906 E187.28595
G1 X186.594 Y29.07 E187.29675
G1 X186.746 Y29.279 E187.30878
G1 X186.828 Y29.524 E187.32081
G1 X186.84 Y29.664 E187.32736
G1 X186.84 Y180.336 E194.34328
G1 X186.8 Y180.591 E194.3553
G1 X186.685 Y180.823 E194.36735
G1 X186.594 Y180.93 E194.37389
G1 X186.43 Y181.094 E194.38469
G1 X186.221 Y181.246 E194.39673
G1 X185.976 Y181.328 E194.40876
G1 X185.836 Y181.34 E194.4153
G1 X24.164 Y181.34 E201.94343
G1 X23.909 Y181.3 E201.95544
G1 X23.677 Y181.185 E201.9675
G1 X23.57 Y181.094 E201.97404
G1 X23.406 Y180.93 E201.98484
G1 X23.254 Y180.721 E201.99688
G1 X23.172 Y180.476 E202.00891
G1 X23.16 Y180.336 E202.01545
G1 X23.16 Y29.664 E209.03137
G1 X23.2 Y29.409 E209.04339
G1 X23.315 Y29.177 E209.05544
G1 X23.406 Y29.07 E209.06199
G1 X23.57 Y28.906 E209.07279
M204 S3000
M205 X10 Y10
G0 F3000 X23.966 Y29.302
M204 S1800
M205 X8 Y8
G1 F2400 X24.164 Y29.22 E209.08276
G1 X185.836 Y29.22 E216.61089
G1 X186.034 Y29.302 E216.62087
G1 X186.198 Y29.466 E216.63167
G1 X186.28 Y29.664 E216.64165
G1 X186.28 Y180.336 E223.65757
G1 X186.198 Y180.534 E223.66755
G1 X186.034 Y180.698 E223.67835
G1 X185.836 Y180.78 E223.68832
G1 X24.164 Y180.78 E231.21645
G1 X23.966 Y180.698 E231.22643
G1 X23.802 Y180.534 E231.23723
G1 X23.72 Y180.336 E231.24721
G1 X23.72 Y29.664 E238.26313
G1 X23.802 Y29.466 E238.27311
G1 X23.966 Y29.302 E238.28391
M204 S3000
M205 X10 Y10
G1 F2400 E232.28391
;MESH:voltimetro_tapa_3D.stl
G0 F3000 X24.854 Y30.354
G0 X24.91 Y179.59
G0 X24.28 Y180.22
M204 S1800
M205 X8 Y8
;TYPE:WALL-OUTER
G1 F2400 E238.28391
G1 F1500 X24.28 Y29.78 E245.28902
G1 X185.72 Y29.78 E252.80635
G1 X185.72 Y180.22 E259.81146
G1 X24.28 Y180.22 E267.32879
M204 S3000
M205 X10 Y10
G0 F3000 X24.28 Y180.02
G0 X24.84 Y179.66
M204 S1800
M205 X8 Y8
;TYPE:WALL-INNER
G1 F1500 X24.84 Y30.34 E274.28175
G1 X185.16 Y30.34 E281.74692
G1 X185.16 Y179.66 E288.69989
G1 X24.84 Y179.66 E296.16506
M204 S3000
M205 X10 Y10
G0 F3000 X25.4 Y179.1
M204 S1800
M205 X8 Y8
G1 F1500 X25.4 Y30.9 E303.06587
G1 X184.6 Y30.9 E310.47889
G1 X184.6 Y179.1 E317.3797
G1 X25.4 Y179.1 E324.79272
M204 S3000
M205 X10 Y10
G0 F3000 X25.95 Y178.55
M204 S1800
M205 X8 Y8
;TYPE:SKIN
G1 F1500 X25.95 Y31.45 E331.64231
G1 X184.05 Y31.45 E339.00411
G1 X184.05 Y178.55 E345.8537
G1 X25.95 Y178.55 E353.2155
M204 S3000
M205 X10 Y10
G0 F3000 X27.024 Y178.289
M204 S1800
M205 X8 Y8
G1 F1500 X26.209 Y177.473 E353.2692
M204 S3000
M205 X10 Y10
G0 F3000 X26.209 Y176.681
M204 S1800
M205 X8 Y8
G1 F1500 X27.816 Y178.289 E353.37506
M204 S3000
M205 X10 Y10
G0 F3000 X28.608 Y178.289
M204 S1800
M205 X8 Y8
G1 F1500 X26.209 Y175.889 E353.53307
M204 S3000
M205 X10 Y10
G0 F3000 X26.209 Y175.098
M204 S1800
M205 X8 Y8
G1 F1500 X29.4 Y178.289 E353.7432
M204 S3000
M205 X10 Y10
G0 F3000 X30.192 Y178.289
M204 S1800
M205 X8 Y8
G1 F1500 X26.209 Y174.306 E354.00549
M204 S3000
M205 X10 Y10
G0 F3000 X26.209 Y173.514
M204 S1800
M205 X8 Y8
G1 F1500 X30.984 Y178.289 E354.31993
M204 S3000
M205 X10 Y10
G0 F3000 X31.776 Y178.289
M204 S1800
M205 X8 Y8
G1 F1500 X26.209 Y172.722 E354.68653
M204 S3000
M205 X10 Y10
G0 F3000 X26.209 Y171.93
M204 S1800
M205 X8 Y8
G1 F1500 X32.568 Y178.289 E355.10528
M204 S3000
M205 X10 Y10
G0 F3000 X33.36 Y178.289
M204 S1800
M205 X8 Y8
G1 F1500 X26.209 Y171.138 E355.57619
M204 S3000
M205 X10 Y10
G0 F3000 X26.209 Y170.346
M204 S1800
M205 X8 Y8
G1 F1500 X34.152 Y178.289 E356.09925
M204 S3000
M205 X10 Y10
G0 F3000 X34.944 Y178.289
M204 S1800
M205 X8 Y8
G1 F1500 X26.209 Y169.554 E356.67446
M204 S3000
M205 X10 Y10
G0 F3000 X26.209 Y168.762
M204 S1800
M205 X8 Y8
G1 F1500 X35.736 Y178.289 E357.30183
M204 S3000
M205 X10 Y10
G0 F3000 X36.528 Y178.289
M204 S1800
M205 X8 Y8
G1 F1500 X26.209 Y167.97 E357.98135
M204 S3000
M205 X10 Y10
G0 F3000 X26.209 Y167.178
M204 S1800
M205 X8 Y8
G1 F1500 X37.32 Y178.289 E358.71303
M204 S3000
M205 X10 Y10
G0 F3000 X38.112 Y178.289
M204 S1800
M205 X8 Y8
G1 F1500 X26.209 Y166.386 E359.49686
M204 S3000
M205 X10 Y10
G0 F3000 X26.209 Y165.594
M204 S1800
M205 X8 Y8
G1 F1500 X38.904 Y178.289 E360.33285
M204 S3000
M205 X10 Y10
G0 F3000 X39.696 Y178.289
M204 S1800
M205 X8 Y8
G1 F1500 X26.209 Y164.802 E361.22099
M204 S3000
M205 X10 Y10
G0 F3000 X26.209 Y164.01
M204 S1800
M205 X8 Y8
G1 F1500 X40.488 Y178.289 E362.16129
M204 S3000
M205 X10 Y10
G0 F3000 X41.28 Y178.289
M204 S1800
M205 X8 Y8
G1 F1500 X26.209 Y163.218 E363.15374
M204 S3000
M205 X10 Y10
G0 F3000 X26.209 Y162.426
M204 S1800
M205 X8 Y8
G1 F1500 X42.072 Y178.289 E364.19835
M204 S3000
M205 X10 Y10
G0 F3000 X42.864 Y178.289
M204 S1800
M205 X8 Y8
G1 F1500 X26.209 Y161.634 E365.29511
M204 S3000
M205 X10 Y10
G0 F3000 X26.209 Y160.842
M204 S1800
M205 X8 Y8
G1 F1500 X43.656 Y178.289 E366.44402
M204 S3000
M205 X10 Y10
G0 F3000 X44.448 Y178.289
M204 S1800
M205 X8 Y8
G1 F1500 X26.209 Y160.05 E367.64509
M204 S3000
M205 X10 Y10
G0 F3000 X26.209 Y159.258
M204 S1800
M205 X8 Y8
G1 F1500 X45.239 Y178.289 E368.89828
M204 S3000
M205 X10 Y10
G0 F3000 X46.031 Y178.289
M204 S1800
M205 X8 Y8
G1 F1500 X26.209 Y158.466 E370.20363
M204 S3000
M205 X10 Y10
G0 F3000 X26.209 Y157.674
M204 S1800
M205 X8 Y8
G1 F1500 X46.823 Y178.289 E371.56113
M204 S3000
M205 X10 Y10
G0 F3000 X47.615 Y178.289
M204 S1800
M205 X8 Y8
G1 F1500 X26.209 Y156.882 E372.97078
M204 S3000
M205 X10 Y10
G0 F3000 X26.209 Y156.09
M204 S1800
M205 X8 Y8
G1 F1500 X48.407 Y178.289 E374.43259
M204 S3000
M205 X10 Y10
G0 F3000 X49.199 Y178.289
M204 S1800
M205 X8 Y8
G1 F1500 X26.209 Y155.299 E375.94652
M204 S3000
M205 X10 Y10
G0 F3000 X26.209 Y154.507
M204 S1800
M205 X8 Y8
G1 F1500 X49.991 Y178.289 E377.51261
M204 S3000
M205 X10 Y10
G0 F3000 X50.783 Y178.289
M204 S1800
M205 X8 Y8
G1 F1500 X26.209 Y153.715 E379.13085
M204 S3000
M205 X10 Y10
G0 F3000 X26.209 Y152.923
M204 S1800
M205 X8 Y8
G1 F1500 X51.575 Y178.289 E380.80124
M204 S3000
M205 X10 Y10
G0 F3000 X52.367 Y178.289
M204 S1800
M205 X8 Y8
G1 F1500 X26.209 Y152.131 E382.52379
M204 S3000
M205 X10 Y10
G0 F3000 X26.209 Y151.339
M204 S1800
M205 X8 Y8
G1 F1500 X53.159 Y178.289 E384.29849
M204 S3000
M205 X10 Y10
G0 F3000 X53.951 Y178.289
M204 S1800
M205 X8 Y8
G1 F1500 X26.209 Y150.547 E386.12535
M204 S3000
M205 X10 Y10
G0 F3000 X26.209 Y149.755
M204 S1800
M205 X8 Y8
G1 F1500 X54.743 Y178.289 E388.00437
M204 S3000
M205 X10 Y10
G0 F3000 X55.535 Y178.289
M204 S1800
M205 X8 Y8
G1 F1500 X26.209 Y148.963 E389.93553
M204 S3000
M205 X10 Y10
G0 F3000 X26.209 Y148.171
M204 S1800
M205 X8 Y8
G1 F1500 X56.327 Y178.289 E391.91885
M204 S3000
M205 X10 Y10
G0 F3000 X57.119 Y178.289
M204 S1800
M205 X8 Y8
G1 F1500 X26.209 Y147.379 E393.95433
M204 S3000
M205 X10 Y10
G0 F3000 X26.209 Y146.587
M204 S1800
M205 X8 Y8
G1 F1500 X57.911 Y178.289 E396.04196
M204 S3000
M205 X10 Y10
G0 F3000 X58.703 Y178.289
M204 S1800
M205 X8 Y8
G1 F1500 X26.209 Y145.795 E398.18175
M204 S3000
M205 X10 Y10
