;FLAVOR:Marlin
;TIME:7656
;Filament used: 5.68643m
;Layer height: 0.2
;MINX:50.8
;MINY:53.3
;MINZ:0.2
;MAXX:159.2
;MAXY:156.7
;MAXZ:1.4
;Generated with Cura_SteamEngine 4.2.1
M140 S60
M105
M190 S60
M104 S200
M105
M109 S200
M82 ;absolute extrusion mode
G21 ;metric values
G90 ;absolute positioning
M82 ;set extruder to absolute mode
M107 ;start with the fan off
G28 X0 Y0 ;move X/Y to min endstops
G28 Z0 ;move Z to min endstops
G1 Z15.0 F100 ;move the platform down 15mm
G92 E0 ;zero the extruded length
G1 F200 E3 ;extrude 3mm of feed stock
G92 E0 ;zero the extruded length again
G1 F100
M117 Printing...
G5
M141 S28
G92 E0
G92 E0
G1 F2400 E-6
;LAYER_COUNT:7
;LAYER:0
M106 S255
M204 S3000
M205 X10 Y10
G0 F3000 X52.194 Y54.53 Z0.2
M204 S1800
M205 X8 Y8
;TYPE:SKIRT
G1 F2400 E0
G1 X52.631 Y54.15 E0.02697
G1 X53.116 Y53.833 E0.05395
G1 X53.64 Y53.586 E0.08092
G1 X54.193 Y53.414 E0.10789
G1 X54.765 Y53.319 E0.13489
G1 X55.164 Y53.3 E0.15349
G1 X154.836 Y53.3 E4.79463
G1 X155.414 Y53.34 E4.82161
G1 X155.981 Y53.459 E4.84859
G1 X156.526 Y53.655 E4.87556
G1 X157.039 Y53.924 E4.90253
G1 X157.51 Y54.261 E4.9295
G1 X157.93 Y54.66 E4.95647
G1 X158.292 Y55.113 E4.98347
G1 X158.587 Y55.611 E5.01042
G1 X158.812 Y56.145 E5.03741
G1 X158.96 Y56.705 E5.06438
G1 X159.036 Y57.493 E5.10124
G1 X159.2 Y152.329 E9.51721
G1 X159.161 Y152.907 E9.54418
G1 X159.043 Y153.474 E9.57115
G1 X158.848 Y154.019 E9.59811
G1 X158.58 Y154.533 E9.6251
G1 X158.243 Y155.005 E9.6521
G1 X157.97 Y155.306 E9.67102
G1 X157.806 Y155.47 E9.68182
G1 X157.369 Y155.85 E9.70879
G1 X156.884 Y156.167 E9.73577
G1 X156.36 Y156.414 E9.76274
G1 X155.807 Y156.586 E9.78971
G1 X155.235 Y156.681 E9.81671
G1 X154.836 Y156.7 E9.83531
G1 X55.164 Y156.7 E14.47646
G1 X54.586 Y156.66 E14.50344
G1 X54.019 Y156.541 E14.53041
G1 X53.474 Y156.345 E14.55738
G1 X52.961 Y156.076 E14.58435
G1 X52.49 Y155.739 E14.61132
G1 X52.194 Y155.47 E14.62994
G1 X52.03 Y155.306 E14.64074
G1 X51.65 Y154.869 E14.66771
G1 X51.333 Y154.384 E14.69469
G1 X51.086 Y153.86 E14.72166
G1 X50.914 Y153.307 E14.74863
G1 X50.819 Y152.735 E14.77563
G1 X50.8 Y152.336 E14.79423
G1 X50.8 Y57.664 E19.20256
G1 X50.84 Y57.086 E19.22953
G1 X50.959 Y56.519 E19.25651
G1 X51.155 Y55.974 E19.28348
G1 X51.424 Y55.461 E19.31045
G1 X51.761 Y54.99 E19.33742
G1 X52.03 Y54.694 E19.35604
G1 X52.194 Y54.53 E19.36684
M204 S3000
M205 X10 Y10
G0 F3000 X52.59 Y54.926
M204 S1800
M205 X8 Y8
G1 F2400 X52.999 Y54.574 E19.39197
G1 X53.455 Y54.286 E19.41708
G1 X53.948 Y54.069 E19.44217
G1 X54.468 Y53.927 E19.46727
G1 X55.164 Y53.86 E19.49982
G1 X154.836 Y53.86 E24.14097
G1 X155.374 Y53.9 E24.16609
G1 X155.9 Y54.019 E24.1912
G1 X156.402 Y54.214 E24.21628
G1 X156.871 Y54.482 E24.24143
G1 X157.294 Y54.815 E24.2665
G1 X157.664 Y55.208 E24.29163
G1 X157.971 Y55.651 E24.31673
G1 X158.21 Y56.135 E24.34187
G1 X158.375 Y56.648 E24.36696
G1 X158.462 Y57.18 E24.39206
G1 X158.476 Y57.494 E24.4067
G1 X158.64 Y152.33 E28.82266
G1 X158.601 Y152.868 E28.84778
G1 X158.483 Y153.394 E28.87288
G1 X158.288 Y153.897 E28.898
G1 X158.022 Y154.365 E28.92307
G1 X157.574 Y154.91 E28.95592
G1 X157.41 Y155.074 E28.96672
G1 X157.001 Y155.426 E28.99185
G1 X156.545 Y155.714 E29.01696
G1 X156.052 Y155.931 E29.04204
G1 X155.532 Y156.073 E29.06714
G1 X154.836 Y156.14 E29.0997
G1 X55.164 Y156.14 E33.74085
G1 X54.626 Y156.1 E33.76597
G1 X54.1 Y155.981 E33.79108
G1 X53.598 Y155.786 E33.81615
G1 X53.129 Y155.518 E33.84131
G1 X52.59 Y155.074 E33.87382
G1 X52.426 Y154.91 E33.88462
G1 X52.074 Y154.501 E33.90975
G1 X51.786 Y154.045 E33.93486
G1 X51.569 Y153.552 E33.95995
G1 X51.427 Y153.032 E33.98505
G1 X51.36 Y152.336 E34.0176
G1 X51.36 Y57.664 E38.42593
G1 X51.4 Y57.126 E38.45105
G1 X51.519 Y56.6 E38.47616
G1 X51.714 Y56.098 E38.50124
G1 X51.982 Y55.629 E38.52639
G1 X52.426 Y55.09 E38.55891
G1 X52.59 Y54.926 E38.56971
M204 S3000
M205 X10 Y10
G0 F3000 X52.986 Y55.322
M204 S1800
M205 X8 Y8
G1 F2400 X53.364 Y55.001 E38.5928
G1 X53.788 Y54.744 E38.61589
G1 X54.249 Y54.559 E38.63902
G1 X54.732 Y54.45 E38.66207
G1 X55.164 Y54.42 E38.68224
G1 X154.836 Y54.42 E43.32338
G1 X155.33 Y54.46 E43.34646
G1 X155.812 Y54.579 E43.36958
G1 X156.268 Y54.773 E43.39265
G1 X156.687 Y55.038 E43.41574
G1 X157.058 Y55.368 E43.43886
G1 X157.372 Y55.752 E43.46196
G1 X157.62 Y56.182 E43.48507
G1 X157.795 Y56.645 E43.50812
G1 X157.894 Y57.132 E43.53126
G1 X157.916 Y57.495 E43.54819
G1 X158.08 Y152.331 E47.96416
G1 X158.041 Y152.825 E47.98723
G1 X157.923 Y153.307 E48.01034
G1 X157.729 Y153.763 E48.03342
G1 X157.465 Y154.183 E48.05652
G1 X157.178 Y154.514 E48.07692
G1 X157.014 Y154.678 E48.08772
G1 X156.636 Y154.999 E48.11081
G1 X156.212 Y155.256 E48.13389
G1 X155.751 Y155.441 E48.15702
G1 X155.268 Y155.55 E48.18008
G1 X154.836 Y155.58 E48.20024
G1 X55.164 Y155.58 E52.84139
G1 X54.67 Y155.54 E52.86447
G1 X54.188 Y155.421 E52.88759
G1 X53.732 Y155.227 E52.91066
G1 X53.313 Y154.962 E52.93375
G1 X52.986 Y154.678 E52.95391
G1 X52.822 Y154.514 E52.96471
G1 X52.501 Y154.136 E52.9878
G1 X52.244 Y153.712 E53.01089
G1 X52.059 Y153.251 E53.03402
G1 X51.95 Y152.768 E53.05708
G1 X51.92 Y152.336 E53.07724
G1 X51.92 Y57.664 E57.48557
G1 X51.96 Y57.17 E57.50864
G1 X52.079 Y56.688 E57.53176
G1 X52.273 Y56.232 E57.55484
G1 X52.538 Y55.813 E57.57792
G1 X52.822 Y55.486 E57.59809
G1 X52.986 Y55.322 E57.60889
M204 S3000
M205 X10 Y10
G0 F3000 X53.382 Y55.718
M204 S1800
M205 X8 Y8
G1 F2400 X53.726 Y55.43 E57.62978
G1 X54.116 Y55.208 E57.65068
G1 X54.539 Y55.059 E57.67156
G1 X55.164 Y54.98 E57.70089
G1 X154.836 Y54.98 E62.34204
G1 X155.283 Y55.02 E62.36294
G1 X155.715 Y55.138 E62.38379
G1 X156.12 Y55.332 E62.4047
G1 X156.484 Y55.594 E62.42558
G1 X156.796 Y55.916 E62.44646
G1 X157.046 Y56.289 E62.46737
G1 X157.226 Y56.7 E62.48826
G1 X157.33 Y57.136 E62.50913
G1 X157.356 Y57.496 E62.52594
G1 X157.52 Y152.332 E66.94191
G1 X157.481 Y152.778 E66.96276
G1 X157.363 Y153.211 E66.98365
G1 X157.17 Y153.616 E67.00454
G1 X156.782 Y154.118 E67.03409
G1 X156.618 Y154.282 E67.04489
G1 X156.274 Y154.57 E67.06578
G1 X155.884 Y154.792 E67.08667
G1 X155.461 Y154.941 E67.10756
G1 X154.836 Y155.02 E67.13689
G1 X55.164 Y155.02 E71.77804
G1 X54.717 Y154.98 E71.79893
G1 X54.285 Y154.862 E71.81979
G1 X53.88 Y154.668 E71.8407
G1 X53.382 Y154.282 E71.87004
G1 X53.218 Y154.118 E71.88084
G1 X52.93 Y153.774 E71.90173
G1 X52.708 Y153.384 E71.92262
G1 X52.559 Y152.961 E71.94351
G1 X52.48 Y152.336 E71.97284
G1 X52.48 Y57.664 E76.38116
G1 X52.52 Y57.217 E76.40206
G1 X52.638 Y56.785 E76.42291
G1 X52.832 Y56.38 E76.44382
G1 X53.218 Y55.882 E76.47316
G1 X53.382 Y55.718 E76.48396
M204 S3000
M205 X10 Y10
G0 F3000 X53.778 Y56.114
M204 S1800
M205 X8 Y8
G1 F2400 X54.084 Y55.864 E76.50236
G1 X54.435 Y55.681 E76.52079
G1 X54.815 Y55.571 E76.53922
G1 X55.164 Y55.54 E76.55553
G1 X154.836 Y55.54 E81.19668
G1 X155.229 Y55.58 E81.21507
G1 X155.607 Y55.698 E81.23351
G1 X155.953 Y55.889 E81.25191
G1 X156.254 Y56.146 E81.27034
G1 X156.496 Y56.459 E81.28877
G1 X156.672 Y56.813 E81.30717
G1 X156.772 Y57.196 E81.32561
G1 X156.796 Y57.497 E81.33967
G1 X156.96 Y152.333 E85.75563
G1 X156.921 Y152.726 E85.77402
G1 X156.803 Y153.104 E85.79246
G1 X156.613 Y153.45 E85.81084
G1 X156.386 Y153.722 E85.82734
G1 X156.222 Y153.886 E85.83814
G1 X155.916 Y154.136 E85.85654
G1 X155.565 Y154.319 E85.87497
G1 X155.185 Y154.429 E85.89339
G1 X154.836 Y154.46 E85.90971
G1 X55.164 Y154.46 E90.55085
G1 X54.771 Y154.42 E90.56925
G1 X54.393 Y154.302 E90.58769
G1 X54.047 Y154.111 E90.60609
G1 X53.778 Y153.886 E90.62242
G1 X53.614 Y153.722 E90.63322
G1 X53.364 Y153.416 E90.65162
G1 X53.181 Y153.065 E90.67005
G1 X53.071 Y152.685 E90.68847
G1 X53.04 Y152.336 E90.70479
G1 X53.04 Y57.664 E95.11311
G1 X53.08 Y57.271 E95.1315
G1 X53.198 Y56.893 E95.14994
G1 X53.389 Y56.547 E95.16835
G1 X53.614 Y56.278 E95.18468
G1 X53.778 Y56.114 E95.19548
M204 S3000
M205 X10 Y10
G0 F3000 X54.174 Y56.51
M204 S1800
M205 X8 Y8
G1 F2400 X54.437 Y56.304 E95.21103
G1 X54.741 Y56.165 E95.2266
G1 X55.164 Y56.1 E95.24652
G1 X154.836 Y56.1 E99.88767
G1 X155.168 Y56.14 E99.90324
G1 X155.48 Y56.257 E99.91876
G1 X155.757 Y56.445 E99.93435
G1 X155.98 Y56.693 E99.94988
G1 X156.139 Y56.987 E99.96544
G1 X156.223 Y57.311 E99.98102
G1 X156.236 Y57.498 E99.98975
G1 X156.4 Y152.334 E104.40572
G1 X156.361 Y152.665 E104.42124
G1 X156.244 Y152.978 E104.4368
G1 X155.99 Y153.326 E104.45686
G1 X155.826 Y153.49 E104.46766
G1 X155.563 Y153.696 E104.48322
G1 X155.259 Y153.835 E104.49878
G1 X154.836 Y153.9 E104.51871
G1 X55.164 Y153.9 E109.15986
G1 X54.832 Y153.86 E109.17543
G1 X54.52 Y153.743 E109.19094
G1 X54.174 Y153.49 E109.2109
G1 X54.01 Y153.326 E109.2217
G1 X53.804 Y153.063 E109.23726
G1 X53.665 Y152.759 E109.25282
G1 X53.6 Y152.336 E109.27275
G1 X53.6 Y57.664 E113.68108
G1 X53.64 Y57.332 E113.69665
G1 X53.757 Y57.02 E113.71216
G1 X54.01 Y56.674 E113.73212
G1 X54.174 Y56.51 E113.74292
M204 S3000
M205 X10 Y10
G0 F3000 X54.57 Y56.906
M204 S1800
M205 X8 Y8
G1 F2400 X54.779 Y56.754 E113.75495
G1 X55.024 Y56.672 E113.76698
G1 X55.164 Y56.66 E113.77353
G1 X154.836 Y56.66 E118.41467
G1 X155.091 Y56.7 E118.42669
G1 X155.323 Y56.815 E118.43875
G1 X155.508 Y56.996 E118.4508
G1 X155.629 Y57.224 E118.46282
G1 X155.676 Y57.499 E118.47581
G1 X155.84 Y152.335 E122.89178
G1 X155.801 Y152.59 E122.90379
G1 X155.686 Y152.821 E122.91581
G1 X155.594 Y152.93 E122.92245
G1 X155.43 Y153.094 E122.93325
G1 X155.221 Y153.246 E122.94528
G1 X154.976 Y153.328 E122.95731
G1 X154.836 Y153.34 E122.96385
G1 X55.164 Y153.34 E127.605
G1 X54.909 Y153.3 E127.61702
G1 X54.677 Y153.185 E127.62908
G1 X54.57 Y153.094 E127.63562
G1 X54.406 Y152.93 E127.64642
G1 X54.254 Y152.721 E127.65845
G1 X54.172 Y152.476 E127.67048
G1 X54.16 Y152.336 E127.67702
G1 X54.16 Y57.664 E132.08535
G1 X54.2 Y57.409 E132.09737
G1 X54.315 Y57.177 E132.10943
G1 X54.406 Y57.07 E132.11597
G1 X54.57 Y56.906 E132.12677
M204 S3000
M205 X10 Y10
G0 F3000 X54.966 Y57.302
M204 S1800
M205 X8 Y8
G1 F2400 X55.164 Y57.22 E132.13674
G1 X154.836 Y57.22 E136.77789
G1 X154.979 Y57.259 E136.78479
G1 X155.082 Y57.366 E136.79171
G1 X155.116 Y57.5 E136.79815
G1 X155.28 Y152.336 E141.21411
G1 X155.198 Y152.534 E141.22409
G1 X155.034 Y152.698 E141.23489
G1 X154.836 Y152.78 E141.24487
G1 X55.164 Y152.78 E145.88602
G1 X54.966 Y152.698 E145.896
G1 X54.802 Y152.534 E145.9068
G1 X54.72 Y152.336 E145.91677
G1 X54.72 Y57.664 E150.3251
G1 X54.802 Y57.466 E150.33508
G1 X54.966 Y57.302 E150.34588
M204 S3000
M205 X10 Y10
G1 F2400 E144.34588
;MESH:generador_tapa_3D.stl
G0 F3000 X55.854 Y58.354
G0 X55.91 Y151.59
G0 X55.28 Y152.22
M204 S1800
M205 X8 Y8
;TYPE:WALL-OUTER
G1 F2400 E150.34588
G1 F1500 X55.28 Y57.78 E154.7434
G1 X154.72 Y57.78 E159.37374
G1 X154.72 Y152.22 E163.77127
G1 X55.28 Y152.22 E168.40161
M204 S3000
M205 X10 Y10
G0 F3000 X55.28 Y152.02
G0 X55.84 Y151.66
M204 S1800
M205 X8 Y8
;TYPE:WALL-INNER
G1 F1500 X55.84 Y58.34 E172.74698
G1 X154.16 Y58.34 E177.32517
G1 X154.16 Y151.66 E181.67054
G1 X55.84 Y151.66 E186.24873
M204 S3000
M205 X10 Y10
G0 F3000 X56.4 Y151.1
M204 S1800
M205 X8 Y8
G1 F1500 X56.4 Y58.9 E190.54195
G1 X153.6 Y58.9 E195.06799
G1 X153.6 Y151.1 E199.36121
G1 X56.4 Y151.1 E203.88725
M204 S3000
M205 X10 Y10
G0 F3000 X56.95 Y150.55
M204 S1800
M205 X8 Y8
;TYPE:SKIN
G1 F1500 X56.95 Y59.45 E208.12924
G1 X153.05 Y59.45 E212.60406
G1 X153.05 Y150.55 E216.84606
G1 X56.95 Y150.55 E221.32088
M204 S3000
M205 X10 Y10
G0 F3000 X57.629 Y150.289
M204 S1800
M205 X8 Y8
G1 F1500 X57.209 Y149.869 E221.34854
M204 S3000
M205 X10 Y10
G0 F3000 X57.209 Y149.077
M204 S1800
M205 X8 Y8
G1 F1500 X58.421 Y150.289 E221.42835
M204 S3000
M205 X10 Y10
G0 F3000 X59.213 Y150.289
M204 S1800
M205 X8 Y8
G1 F1500 X57.209 Y148.285 E221.56031
M204 S3000
M205 X10 Y10
G0 F3000 X57.209 Y147.493
M204 S1800
M205 X8 Y8
G1 F1500 X60.005 Y150.289 E221.74444
M204 S3000
M205 X10 Y10
G0 F3000 X60.797 Y150.289
M204 S1800
M205 X8 Y8
G1 F1500 X57.209 Y146.701 E221.98071
M204 S3000
M205 X10 Y10
G0 F3000 X57.209 Y145.909
M204 S1800
M205 X8 Y8
G1 F1500 X61.589 Y150.289 E222.26914
M204 S3000
M205 X10 Y10
G0 F3000 X62.381 Y150.289
M204 S1800
M205 X8 Y8
G1 F1500 X57.209 Y145.117 E222.60973
M204 S3000
M205 X10 Y10
G0 F3000 X57.209 Y144.325
M204 S1800
M205 X8 Y8
G1 F1500 X63.173 Y150.289 E223.00247
M204 S3000
M205 X10 Y10
G0 F3000 X63.965 Y150.289
M204 S1800
M205 X8 Y8
G1 F1500 X57.209 Y143.533 E223.44736
M204 S3000
M205 X10 Y10
G0 F3000 X57.209 Y142.741
M204 S1800
M205 X8 Y8
G1 F1500 X64.757 Y150.289 E223.94441
M204 S3000
M205 X10 Y10
G0 F3000 X65.549 Y150.289
M204 S1800
M205 X8 Y8
G1 F1500 X57.209 Y141.949 E224.49361
M204 S3000
M205 X10 Y10
G0 F3000 X57.209 Y141.157
M204 S1800
M205 X8 Y8
G1 F1500 X66.341 Y150.289 E225.09497
M204 S3000
M205 X10 Y10
G0 F3000 X67.133 Y150.289
M204 S1800
M205 X8 Y8
G1 F1500 X57.209 Y140.365 E225.74848
M204 S3000
M205 X10 Y10
G0 F3000 X57.209 Y139.573
M204 S1800
M205 X8 Y8
G1 F1500 X67.925 Y150.289 E226.45415
M204 S3000
M205 X10 Y10
G0 F3000 X68.717 Y150.289
M204 S1800
M205 X8 Y8
G1 F1500 X57.209 Y138.781 E227.21197
M204 S3000
M205 X10 Y10
G0 F3000 X57.209 Y137.989
M204 S1800
M205 X8 Y8
G1 F1500 X69.509 Y150.289 E228.02195
M204 S3000
M205 X10 Y10
G0 F3000 X70.301 Y150.289
M204 S1800
M205 X8 Y8
G1 F1500 X57.209 Y137.197 E228.88408
M204 S3000
M205 X10 Y10
G0 F3000 X57.209 Y136.405
M204 S1800
M205 X8 Y8
G1 F1500 X71.093 Y150.289 E229.79836
M204 S3000
M205 X10 Y10
G0 F3000 X71.885 Y150.289
M204 S1800
M205 X8 Y8
G1 F1500 X57.209 Y135.613 E230.7648
M204 S3000
M205 X10 Y10
G0 F3000 X57.209 Y134.821
M204 S1800
M205 X8 Y8
G1 F1500 X72.677 Y150.289 E231.7834
M204 S3000
M205 X10 Y10
G0 F3000 X73.469 Y150.289
M204 S1800
M205 X8 Y8
G1 F1500 X57.209 Y134.029 E232.85415
M204 S3000
M205 X10 Y10
G0 F3000 X57.209 Y133.238
M204 S1800
M205 X8 Y8
G1 F1500 X74.261 Y150.289 E233.97702
M204 S3000
M205 X10 Y10
G0 F3000 X75.053 Y150.289
M204 S1800
M205 X8 Y8
G1 F1500 X57.209 Y132.446 E235.15204
M204 S3000
M205 X10 Y10
G0 F3000 X57.209 Y131.654
M204 S1800
M205 X8 Y8
G1 F1500 X75.844 Y150.289 E236.37919
M204 S3000
M205 X10 Y10
G0 F3000 X76.636 Y150.289
M204 S1800
M205 X8 Y8
G1 F1500 X57.209 Y130.862 E237.65849
M204 S3000
M205 X10 Y10
G0 F3000 X57.209 Y130.07
M204 S1800
M205 X8 Y8
G1 F1500 X77.428 Y150.289 E238.98994
M204 S3000
M205 X10 Y10
G0 F3000 X78.22 Y150.289
M204 S1800
M205 X8 Y8
G1 F1500 X57.209 Y129.278 E240.37356
M204 S3000
M205 X10 Y10
G0 F3000 X57.209 Y128.486
M204 S1800
M205 X8 Y8
G1 F1500 X79.012 Y150.289 E241.80932
M204 S3000
M205 X10 Y10
G0 F3000 X79.804 Y150.289
M204 S1800
M205 X8 Y8
G1 F1500 X57.209 Y127.694 E243.29724
M204 S3000
M205 X10 Y10
G0 F3000 X57.209 Y126.902
M204 S1800
M205 X8 Y8
G1 F1500 X80.596 Y150.289 E244.83731
M204 S3000
M205 X10 Y10
G0 F3000 X81.388 Y150.289
M204 S1800
M205 X8 Y8
G1 F1500 X57.209 Y126.11 E246.42954
M204 S3000
M205 X10 Y10
G0 F3000 X57.209 Y125.318
M204 S1800
M205 X8 Y8
G1 F1500 X82.18 Y150.289 E248.07392
M204 S3000
M205 X10 Y10
G0 F3000 X82.972 Y150.289
M204 S1800
M205 X8 Y8
G1 F1500 X57.209 Y124.526 E249.77046
M204 S3000
M205 X10 Y10
G0 F3000 X57.209 Y123.734
M204 S1800
M205 X8 Y8
G1 F1500 X83.764 Y150.289 E251.51915
M204 S3000
M205 X10 Y10
G0 F3000 X84.556 Y150.289
M204 S1800
M205 X8 Y8
G1 F1500 X57.209 Y122.942 E253.32
M204 S3000
M205 X10 Y10
G0 F3000 X57.209 Y122.15
M204 S1800
M205 X8 Y8
G1 F1500 X85.348 Y150.289 E255.173
M204 S3000
M205 X10 Y10
G0 F3000 X86.14 Y150.289
M204 S1800
M205 X8 Y8
G1 F1500 X57.209 Y121.358 E257.07816
M204 S3000
M205 X10 Y10
G0 F3000 X57.209 Y120.566
M204 S1800
M205 X8 Y8
G1 F1500 X86.932 Y150.289 E259.03547
M204 S3000
M205 X10 Y10
G0 F3000 X87.724 Y150.289
M204 S1800
M205 X8 Y8
G1 F1500 X57.209 Y119.774 E261.04493
M204 S3000
M205 X10 Y10
G0 F3000 X57.209 Y118.982
M204 S1800
M205 X8 Y8
G1 F1500 X88.516 Y150.289 E263.10655
M204 S3000
M205 X10 Y10
G0 F3000 X89.308 Y150.289
M204 S1800
M205 X8 Y8
G1 F1500 X57.209 Y118.19 E265.22033
M204 S3000
M205 X10 Y10
G0 F3000 X57.209 Y117.398
M204 S1800
M205 X8 Y8
G1 F1500 X90.1 Y150.289 E267.38625
M204 S3000
M205 X10 Y10
G0 F3000 X90.892 Y150.289
M204 S1800
M205 X8 Y8
G1 F1500 X57.209 Y116.606 E269.60434
M204 S3000
M205 X10 Y10
G0 F3000 X57.209 Y115.814
M204 S1800
