;FLAVOR:Marlin
;TIME:35365
;Filament used: 29.7075m
;Layer height: 0.2
;MINX:13.999
;MINY:39.19
;MINZ:0.2
;MAXX:196.001
;MAXY:170.81
;MAXZ:3.6
;Generated with Cura_SteamEngine 4.2.1
M140 S60
M105
M190 S60
M104 S200
M105
M109 S200
M82 ;absolute extrusion mode
G21 ;metric values
G90 ;absolute positioning
M82 ;set extruder to absolute mode
M107 ;start with the fan off
G28 X0 Y0 ;move X/Y to min endstops
G28 Z0 ;move Z to min endstops
G1 Z15.0 F100 ;move the platform down 15mm
G92 E0 ;zero the extruded length
G1 F200 E3 ;extrude 3mm of feed stock
G92 E0 ;zero the extruded length again
G1 F100
M117 Printing...
G5
M141 S28
G92 E0
G92 E0
G1 F2400 E-6
;LAYER_COUNT:18
;LAYER:0
M106 S255
M204 S3000
M205 X10 Y10
G0 F3000 X20.22 Y40.184 Z0.2
M204 S1800
M205 X8 Y8
;TYPE:SKIRT
G1 F2400 E0
G1 X20.745 Y39.942 E0.02692
G1 X21.439 Y39.744 E0.06052
G1 X23.778 Y39.29 E0.17147
G1 X24.577 Y39.213 E0.20885
G1 X178.001 Y39.19 E7.35291
G1 X185.308 Y39.19 E7.69316
G1 X186.111 Y39.267 E7.73072
G1 X188.563 Y39.744 E7.84703
G1 X189.123 Y39.894 E7.87403
G1 X189.775 Y40.181 E7.9072
G1 X191.768 Y41.27 E8.01295
G1 X192.256 Y41.583 E8.03995
G1 X192.819 Y42.084 E8.07504
G1 X194.027 Y43.373 E8.1573
G1 X194.046 Y43.394 E8.15862
G1 X194.107 Y43.46 E8.1628
G1 X194.47 Y43.912 E8.1898
G1 X194.839 Y44.557 E8.2244
G1 X195.425 Y45.832 E8.28974
G1 X195.63 Y46.374 E8.31672
G1 X195.767 Y46.992 E8.3462
G1 X195.951 Y48.281 E8.40683
G1 X195.993 Y48.869 E8.43428
G1 X196.001 Y54.194 E8.68223
G1 X196.001 Y161.063 E13.6585
G1 X195.968 Y161.586 E13.6829
G1 X195.814 Y162.812 E13.74044
G1 X195.703 Y163.381 E13.76743
G1 X195.483 Y163.999 E13.79798
G1 X194.859 Y165.399 E13.86935
G1 X194.587 Y165.91 E13.8963
G1 X194.09 Y166.559 E13.93437
G1 X192.882 Y167.85 E14.01669
G1 X192.855 Y167.878 E14.01851
G1 X192.794 Y167.942 E14.02262
G1 X192.367 Y168.333 E14.04958
G1 X191.767 Y168.73 E14.08308
G1 X189.868 Y169.767 E14.18383
G1 X189.252 Y170.042 E14.21525
G1 X189.045 Y170.115 E14.22547
G1 X188.452 Y170.276 E14.25408
G1 X186.113 Y170.732 E14.36504
G1 X185.309 Y170.81 E14.40266
G1 X24.691 Y170.81 E21.8817
G1 X23.889 Y170.733 E21.91922
G1 X21.437 Y170.256 E22.03553
G1 X20.877 Y170.106 E22.06253
G1 X20.225 Y169.819 E22.0957
G1 X18.232 Y168.73 E22.20145
G1 X17.744 Y168.417 E22.22845
G1 X17.181 Y167.916 E22.26354
G1 X15.975 Y166.629 E22.34567
G1 X15.959 Y166.611 E22.34679
G1 X15.896 Y166.543 E22.35111
G1 X15.533 Y166.092 E22.37806
G1 X15.16 Y165.442 E22.41296
G1 X14.575 Y164.168 E22.47824
G1 X14.37 Y163.626 E22.50522
G1 X14.234 Y163.009 E22.53464
G1 X14.05 Y161.72 E22.59527
G1 X14.008 Y161.126 E22.623
G1 X13.999 Y54.201 E27.60188
G1 X13.999 Y48.938 E27.84694
G1 X14.032 Y48.412 E27.87148
G1 X14.187 Y47.183 E27.92916
G1 X14.299 Y46.615 E27.95612
G1 X14.517 Y46.001 E27.98646
G1 X15.113 Y44.662 E28.05471
G1 X15.384 Y44.15 E28.08168
G1 X15.85 Y43.536 E28.11757
G1 X17.086 Y42.184 E28.20287
G1 X17.092 Y42.178 E28.20327
G1 X17.148 Y42.117 E28.20712
G1 X17.568 Y41.718 E28.2341
G1 X18.23 Y41.27 E28.27132
G1 X20.134 Y40.231 E28.37232
G1 X20.22 Y40.184 E28.37688
M204 S3000
M205 X10 Y10
G0 F3000 X20.489 Y40.675
M204 S1800
M205 X8 Y8
G1 F2400 X20.98 Y40.452 E28.40199
G1 X21.545 Y40.294 E28.42931
G1 X23.884 Y39.84 E28.54026
G1 X24.577 Y39.773 E28.57268
G1 X178.001 Y39.75 E35.71674
G1 X185.308 Y39.75 E36.05699
G1 X186.004 Y39.817 E36.08954
G1 X188.456 Y40.294 E36.20586
G1 X188.976 Y40.436 E36.23096
G1 X189.506 Y40.673 E36.25799
G1 X191.499 Y41.762 E36.36375
G1 X191.952 Y42.055 E36.38887
G1 X192.41 Y42.467 E36.41755
G1 X193.618 Y43.756 E36.49981
G1 X193.635 Y43.774 E36.50097
G1 X193.696 Y43.84 E36.50515
G1 X194.032 Y44.262 E36.53027
G1 X194.33 Y44.791 E36.55854
G1 X194.916 Y46.066 E36.62388
G1 X195.105 Y46.571 E36.64899
G1 X195.212 Y47.072 E36.67284
G1 X195.396 Y48.361 E36.73347
G1 X195.433 Y48.87 E36.75724
G1 X195.441 Y54.195 E37.00519
G1 X195.441 Y161.063 E41.98141
G1 X195.413 Y161.517 E42.00259
G1 X195.259 Y162.743 E42.06013
G1 X195.152 Y163.271 E42.08521
G1 X194.972 Y163.771 E42.10996
G1 X194.348 Y165.171 E42.18133
G1 X194.092 Y165.646 E42.20646
G1 X193.681 Y166.176 E42.23769
G1 X192.473 Y167.467 E42.32001
G1 X192.45 Y167.491 E42.32156
G1 X192.389 Y167.555 E42.32568
G1 X191.989 Y167.917 E42.3508
G1 X191.499 Y168.239 E42.3781
G1 X189.6 Y169.276 E42.47885
G1 X189.066 Y169.514 E42.50608
G1 X188.859 Y169.587 E42.5163
G1 X188.345 Y169.727 E42.5411
G1 X186.006 Y170.183 E42.65207
G1 X185.309 Y170.25 E42.68467
G1 X24.691 Y170.25 E50.16372
G1 X23.996 Y170.183 E50.19623
G1 X21.544 Y169.706 E50.31255
G1 X21.024 Y169.564 E50.33765
G1 X20.494 Y169.327 E50.36468
G1 X18.501 Y168.238 E50.47043
G1 X18.048 Y167.945 E50.49555
G1 X17.59 Y167.533 E50.52424
G1 X16.384 Y166.246 E50.60637
G1 X16.37 Y166.231 E50.60732
G1 X16.307 Y166.163 E50.61164
G1 X15.971 Y165.741 E50.63676
G1 X15.669 Y165.208 E50.66528
G1 X15.084 Y163.934 E50.73056
G1 X14.896 Y163.429 E50.75565
G1 X14.789 Y162.929 E50.77946
G1 X14.605 Y161.64 E50.84009
G1 X14.568 Y161.126 E50.86409
G1 X14.559 Y54.201 E55.84296
G1 X14.559 Y48.938 E56.08803
G1 X14.588 Y48.483 E56.10926
G1 X14.743 Y47.254 E56.16694
G1 X14.85 Y46.725 E56.19207
G1 X15.029 Y46.229 E56.21663
G1 X15.625 Y44.89 E56.28487
G1 X15.88 Y44.415 E56.30998
G1 X16.263 Y43.914 E56.33934
G1 X17.499 Y42.562 E56.42464
G1 X17.505 Y42.556 E56.42503
G1 X17.561 Y42.495 E56.42889
G1 X17.954 Y42.126 E56.45399
G1 X18.498 Y41.762 E56.48447
G1 X20.396 Y40.726 E56.58516
G1 X20.489 Y40.675 E56.5901
M204 S3000
M205 X10 Y10
G0 F3000 X20.758 Y41.166
M204 S1800
M205 X8 Y8
G1 F2400 X21.211 Y40.964 E56.61319
G1 X21.652 Y40.843 E56.63449
G1 X23.991 Y40.389 E56.74543
G1 X24.578 Y40.333 E56.77289
G1 X178.002 Y40.31 E63.91695
G1 X185.309 Y40.31 E64.2572
G1 X185.897 Y40.367 E64.28471
G1 X188.349 Y40.844 E64.40102
G1 X188.827 Y40.977 E64.42412
G1 X189.238 Y41.164 E64.44515
G1 X191.231 Y42.253 E64.5509
G1 X191.646 Y42.525 E64.57401
G1 X192.001 Y42.85 E64.59642
G1 X193.209 Y44.139 E64.67868
G1 X193.224 Y44.154 E64.67967
G1 X193.285 Y44.22 E64.68385
G1 X193.591 Y44.611 E64.70697
G1 X193.822 Y45.025 E64.72905
G1 X194.408 Y46.3 E64.79439
G1 X194.578 Y46.766 E64.81748
G1 X194.658 Y47.151 E64.83579
G1 X194.842 Y48.44 E64.89642
G1 X194.873 Y48.87 E64.9165
G1 X194.881 Y54.195 E65.16445
G1 X194.881 Y161.063 E70.14067
G1 X194.857 Y161.447 E70.15859
G1 X194.703 Y162.673 E70.21613
G1 X194.602 Y163.158 E70.23919
G1 X194.46 Y163.543 E70.2583
G1 X193.836 Y164.943 E70.32967
G1 X193.598 Y165.378 E70.35276
G1 X193.272 Y165.793 E70.37734
G1 X192.064 Y167.084 E70.45966
G1 X192.045 Y167.105 E70.46098
G1 X191.984 Y167.169 E70.4651
G1 X191.614 Y167.499 E70.48818
G1 X191.23 Y167.747 E70.50947
G1 X189.331 Y168.784 E70.61022
G1 X188.879 Y168.986 E70.63327
G1 X188.672 Y169.059 E70.64349
G1 X188.237 Y169.177 E70.66448
G1 X185.898 Y169.633 E70.77545
G1 X185.309 Y169.69 E70.803
G1 X24.691 Y169.69 E78.28205
G1 X24.103 Y169.633 E78.30956
G1 X21.651 Y169.156 E78.42587
G1 X21.173 Y169.023 E78.44897
G1 X20.762 Y168.836 E78.47
G1 X18.769 Y167.747 E78.57575
G1 X18.354 Y167.475 E78.59886
G1 X17.999 Y167.15 E78.62127
G1 X16.793 Y165.863 E78.7034
G1 X16.781 Y165.85 E78.70422
G1 X16.718 Y165.782 E78.70854
G1 X16.411 Y165.392 E78.73165
G1 X16.178 Y164.974 E78.75393
G1 X15.593 Y163.7 E78.81921
G1 X15.423 Y163.234 E78.84231
G1 X15.343 Y162.85 E78.86057
G1 X15.159 Y161.561 E78.9212
G1 X15.128 Y161.126 E78.94151
G1 X15.119 Y54.201 E83.92038
G1 X15.119 Y48.938 E84.16545
G1 X15.143 Y48.553 E84.18341
G1 X15.298 Y47.324 E84.24109
G1 X15.4 Y46.838 E84.26422
G1 X15.54 Y46.457 E84.28312
G1 X16.136 Y45.118 E84.35136
G1 X16.374 Y44.682 E84.37449
G1 X16.677 Y44.292 E84.39749
G1 X17.913 Y42.94 E84.48279
G1 X17.917 Y42.935 E84.48309
G1 X17.973 Y42.874 E84.48694
G1 X18.337 Y42.537 E84.51004
G1 X18.767 Y42.253 E84.53404
G1 X20.665 Y41.217 E84.63472
G1 X20.758 Y41.166 E84.63966
M204 S3000
M205 X10 Y10
G0 F3000 X21.027 Y41.657
M204 S1800
M205 X8 Y8
G1 F2400 X21.438 Y41.478 E84.66054
G1 X21.759 Y41.393 E84.676
G1 X24.098 Y40.939 E84.78695
G1 X24.578 Y40.893 E84.8094
G1 X178.002 Y40.87 E91.95346
G1 X185.309 Y40.87 E92.29371
G1 X185.79 Y40.916 E92.31621
G1 X188.242 Y41.393 E92.43252
G1 X188.673 Y41.518 E92.45342
G1 X188.969 Y41.656 E92.46863
G1 X190.962 Y42.745 E92.57438
G1 X191.335 Y42.994 E92.59526
G1 X191.593 Y43.233 E92.61164
G1 X192.801 Y44.522 E92.6939
G1 X192.813 Y44.535 E92.69472
G1 X192.874 Y44.601 E92.69891
G1 X193.148 Y44.956 E92.71979
G1 X193.313 Y45.259 E92.73585
G1 X193.899 Y46.534 E92.80119
G1 X194.049 Y46.956 E92.82205
G1 X194.104 Y47.23 E92.83506
G1 X194.288 Y48.519 E92.89569
G1 X194.313 Y48.871 E92.91212
G1 X194.321 Y54.196 E93.16008
G1 X194.321 Y161.063 E98.13625
G1 X194.301 Y161.377 E98.1509
G1 X194.147 Y162.603 E98.20844
G1 X194.052 Y163.041 E98.22931
G1 X193.949 Y163.315 E98.24294
G1 X193.325 Y164.715 E98.31431
G1 X193.106 Y165.107 E98.33522
G1 X192.863 Y165.411 E98.35334
G1 X191.655 Y166.702 E98.43567
G1 X191.639 Y166.719 E98.43675
G1 X191.578 Y166.783 E98.44087
G1 X191.241 Y167.079 E98.46176
G1 X190.962 Y167.256 E98.47714
G1 X189.063 Y168.293 E98.57789
G1 X188.693 Y168.458 E98.59676
G1 X188.486 Y168.531 E98.60698
G1 X188.13 Y168.627 E98.62415
G1 X185.791 Y169.083 E98.73511
G1 X185.309 Y169.13 E98.75766
G1 X24.691 Y169.13 E106.23671
G1 X24.21 Y169.084 E106.25921
G1 X21.758 Y168.607 E106.37552
G1 X21.327 Y168.482 E106.39642
G1 X21.031 Y168.344 E106.41163
G1 X19.038 Y167.255 E106.51738
G1 X18.665 Y167.006 E106.53826
G1 X18.407 Y166.767 E106.55464
G1 X17.201 Y165.48 E106.63677
G1 X17.191 Y165.47 E106.63742
G1 X17.128 Y165.402 E106.64174
G1 X16.854 Y165.047 E106.66262
G1 X16.687 Y164.741 E106.67886
G1 X16.102 Y163.467 E106.74413
G1 X15.952 Y163.044 E106.76503
G1 X15.897 Y162.771 E106.778
G1 X15.713 Y161.482 E106.83863
G1 X15.688 Y161.126 E106.85525
G1 X15.679 Y54.201 E111.83412
G1 X15.679 Y48.938 E112.07919
G1 X15.699 Y48.623 E112.09389
G1 X15.854 Y47.394 E112.15157
G1 X15.949 Y46.955 E112.17248
G1 X16.052 Y46.684 E112.18598
G1 X16.648 Y45.345 E112.25423
G1 X16.866 Y44.953 E112.27511
G1 X17.09 Y44.67 E112.29192
G1 X18.326 Y43.318 E112.37722
G1 X18.33 Y43.314 E112.37748
G1 X18.386 Y43.253 E112.38134
G1 X18.717 Y42.951 E112.4022
G1 X19.035 Y42.745 E112.41984
G1 X20.934 Y41.709 E112.52057
G1 X20.934 Y41.708 E112.52062
G1 X21.027 Y41.657 E112.52556
M204 S3000
M205 X10 Y10
G0 F3000 X21.297 Y42.148
M204 S1800
M205 X8 Y8
G1 F2400 X21.661 Y41.994 E112.54396
G1 X21.866 Y41.943 E112.5538
G1 X24.205 Y41.489 E112.66475
G1 X24.578 Y41.453 E112.68219
G1 X178.002 Y41.43 E119.82626
G1 X185.309 Y41.43 E120.1665
G1 X185.683 Y41.466 E120.184
G1 X188.135 Y41.943 E120.30031
G1 X188.514 Y42.057 E120.31874
G1 X188.701 Y42.147 E120.32841
G1 X190.694 Y43.236 E120.43416
G1 X191.02 Y43.46 E120.45258
G1 X191.184 Y43.616 E120.46312
G1 X192.392 Y44.905 E120.54538
G1 X192.401 Y44.915 E120.546
G1 X192.462 Y44.981 E120.55019
G1 X192.7 Y45.297 E120.56861
G1 X192.804 Y45.492 E120.5789
G1 X193.39 Y46.767 E120.64424
G1 X193.549 Y47.309 E120.67054
G1 X193.733 Y48.598 E120.73117
G1 X193.753 Y48.872 E120.74396
G1 X193.761 Y54.197 E120.99192
G1 X193.761 Y161.063 E125.96805
G1 X193.746 Y161.307 E125.97943
G1 X193.592 Y162.533 E126.03696
G1 X193.437 Y163.087 E126.06375
G1 X192.813 Y164.487 E126.13512
G1 X192.617 Y164.83 E126.15352
G1 X192.454 Y165.028 E126.16546
G1 X191.246 Y166.319 E126.24779
G1 X191.234 Y166.332 E126.24861
G1 X191.173 Y166.396 E126.25273
G1 X190.872 Y166.654 E126.27119
G1 X190.693 Y166.764 E126.28097
G1 X188.794 Y167.801 E126.38172
G1 X188.507 Y167.929 E126.39636
G1 X188.3 Y168.002 E126.40658
G1 X188.023 Y168.078 E126.41995
G1 X185.684 Y168.534 E126.53092
G1 X185.309 Y168.57 E126.54846
G1 X24.691 Y168.57 E134.0275
G1 X24.317 Y168.534 E134.045
G1 X21.865 Y168.057 E134.16132
G1 X21.486 Y167.943 E134.17974
G1 X21.299 Y167.853 E134.18941
G1 X19.306 Y166.764 E134.29516
G1 X18.98 Y166.54 E134.31358
G1 X18.816 Y166.384 E134.32412
G1 X17.61 Y165.097 E134.40625
G1 X17.602 Y165.089 E134.40677
G1 X17.539 Y165.021 E134.41109
G1 X17.301 Y164.705 E134.42951
G1 X17.196 Y164.507 E134.43995
G1 X16.611 Y163.233 E134.50522
G1 X16.452 Y162.692 E134.53148
G1 X16.268 Y161.403 E134.59211
G1 X16.248 Y161.126 E134.60504
G1 X16.239 Y54.201 E139.58392
G1 X16.239 Y48.938 E139.82898
G1 X16.254 Y48.693 E139.84041
G1 X16.409 Y47.464 E139.89809
G1 X16.563 Y46.912 E139.92478
G1 X17.159 Y45.573 E139.99303
G1 X17.356 Y45.23 E140.01145
G1 X17.503 Y45.048 E140.02234
G1 X18.739 Y43.696 E140.10764
G1 X18.742 Y43.693 E140.10783
G1 X18.798 Y43.632 E140.11169
G1 X19.094 Y43.369 E140.13013
G1 X19.303 Y43.236 E140.14166
G1 X21.207 Y42.197 E140.24266
G1 X21.297 Y42.148 E140.24743
M204 S3000
M205 X10 Y10
G0 F3000 X21.566 Y42.639
M204 S1800
M205 X8 Y8
G1 F2400 X21.972 Y42.493 E140.26752
G1 X24.311 Y42.039 E140.37847
G1 X24.578 Y42.013 E140.39096
G1 X178.002 Y41.99 E147.53503
G1 X185.309 Y41.99 E147.87527
G1 X185.576 Y42.016 E147.88776
G1 X188.028 Y42.493 E148.00408
G1 X188.432 Y42.638 E148.02407
G1 X190.425 Y43.727 E148.12982
G1 X190.776 Y43.999 E148.15049
G1 X191.984 Y45.288 E148.23275
G1 X191.99 Y45.295 E148.23318
G1 X192.051 Y45.361 E148.23737
G1 X192.295 Y45.726 E148.25781
G1 X192.881 Y47.001 E148.32315
G1 X192.995 Y47.388 E148.34194
G1 X193.179 Y48.677 E148.40257
G1 X193.193 Y48.873 E148.41172
G1 X193.201 Y54.198 E148.65967
G1 X193.201 Y161.063 E153.63575
G1 X193.19 Y161.237 E153.64387
G1 X193.036 Y162.463 E153.70141
G1 X192.926 Y162.859 E153.72055
G1 X192.302 Y164.259 E153.79192
G1 X192.045 Y164.646 E153.81355
G1 X190.837 Y165.937 E153.89588
G1 X190.828 Y165.946 E153.89647
G1 X190.767 Y166.01 E153.90059
G1 X190.425 Y166.273 E153.92068
G1 X188.526 Y167.31 E154.02143
G1 X188.321 Y167.401 E154.03187
G1 X188.114 Y167.474 E154.04209
G1 X187.916 Y167.528 E154.05165
G1 X185.577 Y167.984 E154.16261
G1 X185.309 Y168.01 E154.17515
G1 X24.691 Y168.01 E161.6542
G1 X24.424 Y167.984 E161.66669
G1 X21.972 Y167.507 E161.783
G1 X21.568 Y167.362 E161.80299
G1 X19.575 Y166.273 E161.90874
G1 X19.224 Y166.001 E161.92942
G1 X18.018 Y164.714 E162.01155
G1 X18.013 Y164.708 E162.01191
G1 X17.95 Y164.64 E162.01623
G1 X17.705 Y164.273 E162.03677
G1 X17.12 Y162.999 E162.10205
G1 X17.006 Y162.613 E162.12079
G1 X16.822 Y161.324 E162.18142
G1 X16.808 Y161.126 E162.19067
G1 X16.799 Y54.201 E167.16954
G1 X16.799 Y48.938 E167.41461
G1 X16.81 Y48.763 E167.42277
G1 X16.965 Y47.534 E167.48046
G1 X17.075 Y47.14 E167.4995
G1 X17.671 Y45.801 E167.56775
G1 X17.917 Y45.425 E167.58867
G1 X19.153 Y44.073 E167.67397
G1 X19.155 Y44.071 E167.6741
G1 X19.211 Y44.01 E167.67796
G1 X19.571 Y43.728 E167.69925
G1 X21.475 Y42.689 E167.80025
G1 X21.566 Y42.639 E167.80509
M204 S3000
M205 X10 Y10
G0 F3000 X21.835 Y43.13
M204 S1800
M205 X8 Y8
G1 F2400 X22.079 Y43.042 E167.81716
G1 X24.418 Y42.588 E167.92811
G1 X24.578 Y42.573 E167.93559
G1 X178.002 Y42.55 E175.07966
G1 X185.309 Y42.55 E175.4199
G1 X185.469 Y42.565 E175.42738
G1 X187.921 Y43.042 E175.5437
G1 X188.164 Y43.13 E175.55573
G1 X190.157 Y44.219 E175.66149
G1 X190.367 Y44.382 E175.67387
G1 X191.575 Y45.671 E175.75613
G1 X191.579 Y45.675 E175.75639
G1 X191.64 Y45.741 E175.76057
G1 X191.786 Y45.96 E175.77283
G1 X192.372 Y47.235 E175.83817
G1 X192.441 Y47.467 E175.84944
G1 X192.625 Y48.756 E175.91007
G1 X192.633 Y48.874 E175.91558
G1 X192.641 Y54.199 E176.16353
G1 X192.641 Y161.063 E181.13957
G1 X192.634 Y161.168 E181.14447
G1 X192.48 Y162.394 E181.202
G1 X192.414 Y162.631 E181.21346
G1 X191.79 Y164.031 E181.28483
G1 X191.636 Y164.263 E181.2978
G1 X190.428 Y165.554 E181.38012
G1 X190.423 Y165.56 E181.38049
G1 X190.362 Y165.624 E181.3846
G1 X190.157 Y165.781 E181.39663
G1 X188.258 Y166.818 E181.49738
G1 X188.134 Y166.873 E181.5037
G1 X187.927 Y166.946 E181.51392
G1 X187.809 Y166.978 E181.51961
G1 X185.47 Y167.434 E181.63057
G1 X185.309 Y167.45 E181.63811
G1 X24.691 Y167.45 E189.11715
G1 X24.531 Y167.435 E189.12464
G1 X22.079 Y166.958 E189.24095
G1 X21.836 Y166.87 E189.25299
G1 X19.843 Y165.781 E189.35874
G1 X19.633 Y165.618 E189.37112
G1 X18.427 Y164.331 E189.45324
G1 X18.424 Y164.328 E189.45344
G1 X18.361 Y164.26 E189.45776
G1 X18.214 Y164.04 E189.47008
G1 X17.629 Y162.766 E189.53536
G1 X17.56 Y162.534 E189.54663
