;FLAVOR:Marlin
;TIME:2005
;Filament used: 1.62387m
;Layer height: 0.2
;MINX:55.8
;MINY:69.8
;MINZ:0.2
;MAXX:154.2
;MAXY:140.2
;MAXZ:1.4
;Generated with Cura_SteamEngine 4.2.1
M140 S60
M105
M190 S60
M104 S200
M105
M109 S200
M82 ;absolute extrusion mode
G21 ;metric values
G90 ;absolute positioning
M82 ;set extruder to absolute mode
M107 ;start with the fan off
G28 X0 Y0 ;move X/Y to min endstops
G28 Z0 ;move Z to min endstops
G1 Z15.0 F100 ;move the platform down 15mm
G92 E0 ;zero the extruded length
G1 F200 E3 ;extrude 3mm of feed stock
G92 E0 ;zero the extruded length again
G1 F100
M117 Printing...
G5
M141 S28
G92 E0
G92 E0
G1 F2400 E-6
;LAYER_COUNT:7
;LAYER:0
M106 S255
M204 S3000
M205 X10 Y10
G0 F3000 X57.631 Y70.65 Z0.2
M204 S1800
M205 X8 Y8
;TYPE:SKIRT
G1 F2400 E0
G1 X58.116 Y70.333 E0.02698
G1 X58.64 Y70.086 E0.05395
G1 X59.193 Y69.914 E0.08092
G1 X59.765 Y69.819 E0.10792
G1 X60.164 Y69.8 E0.12652
G1 X149.836 Y69.8 E4.30202
G1 X150.414 Y69.84 E4.329
G1 X150.981 Y69.959 E4.35598
G1 X151.526 Y70.155 E4.38295
G1 X152.039 Y70.424 E4.40992
G1 X152.51 Y70.761 E4.43689
G1 X152.93 Y71.16 E4.46386
G1 X153.292 Y71.613 E4.49087
G1 X153.587 Y72.111 E4.51782
G1 X153.812 Y72.645 E4.5448
G1 X153.96 Y73.205 E4.57177
G1 X154.036 Y73.989 E4.60845
G1 X154.2 Y135.825 E7.4878
G1 X154.162 Y136.403 E7.51477
G1 X154.044 Y136.97 E7.54174
G1 X153.849 Y137.516 E7.56874
G1 X153.582 Y138.03 E7.59571
G1 X153.246 Y138.502 E7.62269
G1 X152.97 Y138.806 E7.64181
G1 X152.806 Y138.97 E7.65261
G1 X152.369 Y139.35 E7.67957
G1 X151.884 Y139.667 E7.70655
G1 X151.36 Y139.914 E7.73353
G1 X150.807 Y140.086 E7.76049
G1 X150.235 Y140.181 E7.78749
G1 X149.836 Y140.2 E7.80609
G1 X60.164 Y140.2 E11.9816
G1 X59.586 Y140.16 E12.00857
G1 X59.019 Y140.041 E12.03555
G1 X58.474 Y139.845 E12.06252
G1 X57.961 Y139.576 E12.08949
G1 X57.49 Y139.239 E12.11646
G1 X57.194 Y138.97 E12.13508
G1 X57.03 Y138.806 E12.14588
G1 X56.65 Y138.369 E12.17285
G1 X56.333 Y137.884 E12.19983
G1 X56.086 Y137.36 E12.2268
G1 X55.914 Y136.807 E12.25377
G1 X55.819 Y136.235 E12.28077
G1 X55.8 Y135.836 E12.29937
G1 X55.8 Y74.164 E15.17108
G1 X55.84 Y73.586 E15.19806
G1 X55.959 Y73.019 E15.22503
G1 X56.155 Y72.474 E15.252
G1 X56.424 Y71.961 E15.27897
G1 X56.761 Y71.49 E15.30594
G1 X57.03 Y71.194 E15.32457
G1 X57.194 Y71.03 E15.33537
G1 X57.631 Y70.65 E15.36233
M204 S3000
M205 X10 Y10
G0 F3000 X57.999 Y71.074
M204 S1800
M205 X8 Y8
G1 F2400 X58.455 Y70.786 E15.38745
G1 X58.948 Y70.569 E15.41253
G1 X59.468 Y70.427 E15.43763
G1 X60.164 Y70.36 E15.47019
G1 X149.836 Y70.36 E19.64569
G1 X150.374 Y70.4 E19.67081
G1 X150.9 Y70.519 E19.69592
G1 X151.402 Y70.714 E19.721
G1 X151.871 Y70.982 E19.74615
G1 X152.294 Y71.315 E19.77122
G1 X152.664 Y71.708 E19.79635
G1 X152.971 Y72.151 E19.82145
G1 X153.21 Y72.635 E19.84658
G1 X153.375 Y73.148 E19.87168
G1 X153.462 Y73.68 E19.89678
G1 X153.476 Y73.99 E19.91123
G1 X153.64 Y135.826 E22.79058
G1 X153.601 Y136.364 E22.8157
G1 X153.484 Y136.891 E22.84084
G1 X153.29 Y137.394 E22.86594
G1 X153.024 Y137.863 E22.89105
G1 X152.574 Y138.41 E22.92403
G1 X152.41 Y138.574 E22.93483
G1 X152.001 Y138.926 E22.95995
G1 X151.545 Y139.214 E22.98507
G1 X151.052 Y139.431 E23.01015
G1 X150.532 Y139.573 E23.03525
G1 X149.836 Y139.64 E23.06781
G1 X60.164 Y139.64 E27.24331
G1 X59.626 Y139.6 E27.26843
G1 X59.1 Y139.481 E27.29354
G1 X58.598 Y139.286 E27.31862
G1 X58.129 Y139.018 E27.34377
G1 X57.59 Y138.574 E27.37629
G1 X57.426 Y138.41 E27.38709
G1 X57.074 Y138.001 E27.41222
G1 X56.786 Y137.545 E27.43733
G1 X56.569 Y137.052 E27.46241
G1 X56.427 Y136.532 E27.48751
G1 X56.36 Y135.836 E27.52007
G1 X56.36 Y74.164 E30.39178
G1 X56.4 Y73.626 E30.4169
G1 X56.519 Y73.1 E30.44201
G1 X56.714 Y72.598 E30.46709
G1 X56.982 Y72.129 E30.49224
G1 X57.426 Y71.59 E30.52476
G1 X57.59 Y71.426 E30.53556
G1 X57.999 Y71.074 E30.56068
M204 S3000
M205 X10 Y10
G0 F3000 X58.364 Y71.501
M204 S1800
M205 X8 Y8
G1 F2400 X58.788 Y71.244 E30.58377
G1 X59.249 Y71.059 E30.6069
G1 X59.732 Y70.95 E30.62996
G1 X60.164 Y70.92 E30.65012
G1 X149.836 Y70.92 E34.82562
G1 X150.33 Y70.96 E34.8487
G1 X150.812 Y71.079 E34.87182
G1 X151.268 Y71.273 E34.89489
G1 X151.687 Y71.538 E34.91798
G1 X152.058 Y71.868 E34.9411
G1 X152.372 Y72.252 E34.9642
G1 X152.62 Y72.682 E34.98731
G1 X152.795 Y73.145 E35.01036
G1 X152.894 Y73.632 E35.0335
G1 X152.916 Y73.992 E35.05029
G1 X153.08 Y135.828 E37.92965
G1 X153.041 Y136.322 E37.95272
G1 X152.924 Y136.804 E37.97582
G1 X152.731 Y137.261 E37.99892
G1 X152.466 Y137.681 E38.02204
G1 X152.178 Y138.014 E38.04254
G1 X152.014 Y138.178 E38.05334
G1 X151.636 Y138.499 E38.07643
G1 X151.212 Y138.756 E38.09952
G1 X150.751 Y138.941 E38.12265
G1 X150.268 Y139.05 E38.14571
G1 X149.836 Y139.08 E38.16587
G1 X60.164 Y139.08 E42.34137
G1 X59.67 Y139.04 E42.36445
G1 X59.188 Y138.921 E42.38757
G1 X58.732 Y138.727 E42.41065
G1 X58.313 Y138.462 E42.43373
G1 X57.986 Y138.178 E42.4539
G1 X57.822 Y138.014 E42.4647
G1 X57.501 Y137.636 E42.48779
G1 X57.244 Y137.212 E42.51088
G1 X57.059 Y136.751 E42.53401
G1 X56.95 Y136.268 E42.55706
G1 X56.92 Y135.836 E42.57723
G1 X56.92 Y74.164 E45.44893
G1 X56.96 Y73.67 E45.47201
G1 X57.079 Y73.188 E45.49513
G1 X57.273 Y72.732 E45.5182
G1 X57.538 Y72.313 E45.54129
G1 X57.822 Y71.986 E45.56146
G1 X57.986 Y71.822 E45.57226
G1 X58.364 Y71.501 E45.59535
M204 S3000
M205 X10 Y10
G0 F3000 X58.726 Y71.93
M204 S1800
M205 X8 Y8
G1 F2400 X59.116 Y71.708 E45.61624
G1 X59.539 Y71.559 E45.63713
G1 X60.164 Y71.48 E45.66646
G1 X149.836 Y71.48 E49.84196
G1 X150.283 Y71.52 E49.86286
G1 X150.715 Y71.638 E49.88371
G1 X151.12 Y71.832 E49.90463
G1 X151.484 Y72.094 E49.92551
G1 X151.796 Y72.416 E49.94639
G1 X152.046 Y72.789 E49.96729
G1 X152.226 Y73.2 E49.98819
G1 X152.33 Y73.636 E50.00906
G1 X152.356 Y73.993 E50.02573
G1 X152.52 Y135.829 E52.90508
G1 X152.481 Y136.276 E52.92597
G1 X152.364 Y136.709 E52.94686
G1 X152.172 Y137.114 E52.96773
G1 X151.782 Y137.618 E52.9974
G1 X151.618 Y137.782 E53.0082
G1 X151.274 Y138.07 E53.02909
G1 X150.884 Y138.292 E53.04999
G1 X150.461 Y138.441 E53.07087
G1 X149.836 Y138.52 E53.10021
G1 X60.164 Y138.52 E57.27571
G1 X59.717 Y138.48 E57.29661
G1 X59.285 Y138.362 E57.31746
G1 X58.88 Y138.168 E57.33837
G1 X58.382 Y137.782 E57.36771
G1 X58.218 Y137.618 E57.37851
G1 X57.93 Y137.274 E57.3994
G1 X57.708 Y136.884 E57.4203
G1 X57.559 Y136.461 E57.44118
G1 X57.48 Y135.836 E57.47051
G1 X57.48 Y74.164 E60.34222
G1 X57.52 Y73.717 E60.36312
G1 X57.638 Y73.285 E60.38397
G1 X57.832 Y72.88 E60.40488
G1 X58.218 Y72.382 E60.43422
G1 X58.382 Y72.218 E60.44502
G1 X58.726 Y71.93 E60.46591
M204 S3000
M205 X10 Y10
G0 F3000 X59.084 Y72.364
M204 S1800
M205 X8 Y8
G1 F2400 X59.435 Y72.181 E60.48434
G1 X59.815 Y72.071 E60.50276
G1 X60.164 Y72.04 E60.51908
G1 X149.836 Y72.04 E64.69458
G1 X150.229 Y72.08 E64.71298
G1 X150.607 Y72.198 E64.73142
G1 X150.953 Y72.389 E64.74982
G1 X151.254 Y72.646 E64.76825
G1 X151.496 Y72.959 E64.78667
G1 X151.672 Y73.313 E64.80508
G1 X151.772 Y73.696 E64.82351
G1 X151.796 Y73.995 E64.83748
G1 X151.96 Y135.831 E67.71683
G1 X151.921 Y136.224 E67.73522
G1 X151.804 Y136.602 E67.75365
G1 X151.614 Y136.949 E67.77207
G1 X151.386 Y137.222 E67.78863
G1 X151.222 Y137.386 E67.79943
G1 X150.916 Y137.636 E67.81783
G1 X150.565 Y137.819 E67.83626
G1 X150.185 Y137.929 E67.85468
G1 X149.836 Y137.96 E67.871
G1 X60.164 Y137.96 E72.0465
G1 X59.771 Y137.92 E72.0649
G1 X59.393 Y137.802 E72.08333
G1 X59.047 Y137.611 E72.10174
G1 X58.778 Y137.386 E72.11807
G1 X58.614 Y137.222 E72.12887
G1 X58.364 Y136.916 E72.14727
G1 X58.181 Y136.565 E72.1657
G1 X58.071 Y136.185 E72.18412
G1 X58.04 Y135.836 E72.20043
G1 X58.04 Y74.164 E75.07214
G1 X58.08 Y73.771 E75.09053
G1 X58.198 Y73.393 E75.10897
G1 X58.389 Y73.047 E75.12738
G1 X58.614 Y72.778 E75.14371
G1 X58.778 Y72.614 E75.15451
G1 X59.084 Y72.364 E75.17291
M204 S3000
M205 X10 Y10
G0 F3000 X59.437 Y72.804
M204 S1800
M205 X8 Y8
G1 F2400 X59.741 Y72.665 E75.18847
G1 X60.164 Y72.6 E75.2084
G1 X149.836 Y72.6 E79.3839
G1 X150.168 Y72.64 E79.39947
G1 X150.48 Y72.757 E79.41499
G1 X150.757 Y72.945 E79.43058
G1 X150.98 Y73.193 E79.44611
G1 X151.139 Y73.487 E79.46167
G1 X151.223 Y73.811 E79.47726
G1 X151.236 Y73.996 E79.48589
G1 X151.4 Y135.832 E82.36525
G1 X151.361 Y136.164 E82.38081
G1 X151.245 Y136.477 E82.39635
G1 X150.99 Y136.826 E82.41648
G1 X150.826 Y136.99 E82.42728
G1 X150.563 Y137.196 E82.44284
G1 X150.259 Y137.335 E82.4584
G1 X149.836 Y137.4 E82.47833
G1 X60.164 Y137.4 E86.65383
G1 X59.832 Y137.36 E86.6694
G1 X59.52 Y137.243 E86.68492
G1 X59.174 Y136.99 E86.70488
G1 X59.01 Y136.826 E86.71568
G1 X58.804 Y136.563 E86.73124
G1 X58.665 Y136.259 E86.7468
G1 X58.6 Y135.836 E86.76673
G1 X58.6 Y74.164 E89.63843
G1 X58.64 Y73.832 E89.65401
G1 X58.757 Y73.52 E89.66952
G1 X59.01 Y73.174 E89.68948
G1 X59.174 Y73.01 E89.70028
G1 X59.437 Y72.804 E89.71584
M204 S3000
M205 X10 Y10
G0 F3000 X59.57 Y73.406
M204 S1800
M205 X8 Y8
G1 F2400 X59.779 Y73.254 E89.72787
G1 X60.024 Y73.172 E89.7399
G1 X60.164 Y73.16 E89.74644
G1 X149.836 Y73.16 E93.92195
G1 X150.091 Y73.2 E93.93397
G1 X150.323 Y73.315 E93.94602
G1 X150.508 Y73.496 E93.95807
G1 X150.629 Y73.724 E93.97009
G1 X150.676 Y73.998 E93.98304
G1 X150.84 Y135.834 E96.86239
G1 X150.801 Y136.089 E96.8744
G1 X150.686 Y136.321 E96.88646
G1 X150.594 Y136.43 E96.8931
G1 X150.43 Y136.594 E96.9039
G1 X150.221 Y136.746 E96.91594
G1 X149.976 Y136.828 E96.92797
G1 X149.836 Y136.84 E96.93451
G1 X60.164 Y136.84 E101.11001
G1 X59.909 Y136.8 E101.12203
G1 X59.677 Y136.685 E101.13409
G1 X59.57 Y136.594 E101.14063
G1 X59.406 Y136.43 E101.15143
G1 X59.254 Y136.221 E101.16346
G1 X59.172 Y135.976 E101.17549
G1 X59.16 Y135.836 E101.18204
G1 X59.16 Y74.164 E104.05374
G1 X59.2 Y73.909 E104.06576
G1 X59.315 Y73.677 E104.07782
G1 X59.406 Y73.57 E104.08436
G1 X59.57 Y73.406 E104.09516
M204 S3000
M205 X10 Y10
G0 F3000 X59.966 Y73.802
M204 S1800
M205 X8 Y8
G1 F2400 X60.164 Y73.72 E104.10514
G1 X149.836 Y73.72 E108.28064
G1 X149.979 Y73.759 E108.28754
G1 X150.082 Y73.866 E108.29446
G1 X150.116 Y73.999 E108.30085
G1 X150.28 Y135.835 E111.18021
G1 X150.198 Y136.034 E111.19023
G1 X150.034 Y136.198 E111.20103
G1 X149.836 Y136.28 E111.21101
G1 X60.164 Y136.28 E115.38651
G1 X59.966 Y136.198 E115.39649
G1 X59.802 Y136.034 E115.40729
G1 X59.72 Y135.836 E115.41727
G1 X59.72 Y74.164 E118.28898
G1 X59.802 Y73.966 E118.29895
G1 X59.966 Y73.802 E118.30975
M204 S3000
M205 X10 Y10
G1 F2400 E112.30975
;MESH:osciloscopio_tapa_3D.stl
G0 F3000 X60.854 Y74.854
G0 X74.753 Y126.621
G0 X75.413 Y126.621
M204 S1800
M205 X8 Y8
;TYPE:WALL-OUTER
G1 F2400 E118.30975
G1 F1500 X145.973 Y126.621 E121.59532
G1 X145.973 Y83.061 E123.62366
G1 X75.413 Y83.061 E126.90923
G1 X75.413 Y126.621 E128.93756
M204 S3000
M205 X10 Y10
G0 F3000 X75.613 Y126.621
G0 X75.613 Y127.281
G0 X60.91 Y135.09
G0 X60.28 Y135.72
M204 S1800
M205 X8 Y8
G1 F1500 X60.28 Y74.28 E131.79847
G1 X149.72 Y74.28 E135.96317
G1 X149.72 Y135.72 E138.82407
G1 X60.28 Y135.72 E142.98877
M204 S3000
M205 X10 Y10
G0 F3000 X60.28 Y135.52
G0 X60.84 Y135.16
M204 S1800
M205 X8 Y8
;TYPE:WALL-INNER
G1 F1500 X60.84 Y74.84 E145.79753
G1 X149.16 Y74.84 E149.91008
G1 X149.16 Y135.16 E152.71883
G1 X60.84 Y135.16 E156.83138
M204 S3000
M205 X10 Y10
G0 F3000 X60.91 Y135.09
G0 X74.783 Y127.251
G0 X74.853 Y127.181
M204 S1800
M205 X8 Y8
G1 F1500 X146.533 Y127.181 E160.1691
G1 X146.533 Y82.501 E162.24959
G1 X74.853 Y82.501 E165.58731
G1 X74.853 Y127.181 E167.66779
M204 S3000
M205 X10 Y10
G0 F3000 X74.293 Y127.741
M204 S1800
M205 X8 Y8
G1 F1500 X147.093 Y127.741 E171.05767
G1 X147.093 Y81.941 E173.19031
G1 X74.293 Y81.941 E176.58018
G1 X74.293 Y127.741 E178.71282
M204 S3000
M205 X10 Y10
G0 F3000 X61.4 Y134.6
M204 S1800
M205 X8 Y8
G1 F1500 X61.4 Y75.4 E181.46942
G1 X148.6 Y75.4 E185.52982
G1 X148.6 Y134.6 E188.28642
G1 X61.4 Y134.6 E192.34681
M204 S3000
M205 X10 Y10
G0 F3000 X61.95 Y134.05
M204 S1800
M205 X8 Y8
;TYPE:SKIN
G1 F1500 X61.95 Y75.95 E195.05219
G1 X148.05 Y75.95 E199.06137
G1 X148.05 Y134.05 E201.76675
G1 X61.95 Y134.05 E205.77593
M204 S3000
M205 X10 Y10
G0 F3000 X73.743 Y128.291
M204 S1800
M205 X8 Y8
G1 F1500 X147.643 Y128.291 E209.21702
G1 X147.643 Y81.391 E211.40088
G1 X73.743 Y81.391 E214.84197
G1 X73.743 Y128.291 E217.02583
M204 S3000
M205 X10 Y10
G0 F3000 X62.512 Y133.788
M204 S1800
M205 X8 Y8
G1 F1500 X62.209 Y133.486 E217.04575
M204 S3000
M205 X10 Y10
G0 F3000 X62.209 Y132.694
M204 S1800
M205 X8 Y8
G1 F1500 X63.304 Y133.788 E217.11783
M204 S3000
M205 X10 Y10
G0 F3000 X64.096 Y133.788
M204 S1800
M205 X8 Y8
G1 F1500 X62.209 Y131.902 E217.24206
M204 S3000
M205 X10 Y10
G0 F3000 X62.209 Y131.11
M204 S1800
M205 X8 Y8
G1 F1500 X64.888 Y133.788 E217.41844
M204 S3000
M205 X10 Y10
G0 F3000 X65.68 Y133.788
M204 S1800
M205 X8 Y8
G1 F1500 X62.209 Y130.318 E217.64698
M204 S3000
M205 X10 Y10
G0 F3000 X62.209 Y129.526
M204 S1800
M205 X8 Y8
G1 F1500 X66.472 Y133.788 E217.92767
M204 S3000
M205 X10 Y10
G0 F3000 X67.264 Y133.788
M204 S1800
M205 X8 Y8
G1 F1500 X62.209 Y128.734 E218.26052
M204 S3000
M205 X10 Y10
G0 F3000 X62.209 Y127.942
M204 S1800
M205 X8 Y8
G1 F1500 X68.056 Y133.788 E218.64552
M204 S3000
M205 X10 Y10
G0 F3000 X68.848 Y133.788
M204 S1800
M205 X8 Y8
G1 F1500 X62.209 Y127.15 E219.08268
M204 S3000
M205 X10 Y10
G0 F3000 X62.209 Y126.358
M204 S1800
M205 X8 Y8
G1 F1500 X69.64 Y133.788 E219.57199
M204 S3000
M205 X10 Y10
G0 F3000 X70.432 Y133.788
M204 S1800
M205 X8 Y8
G1 F1500 X62.209 Y125.566 E220.11346
M204 S3000
M205 X10 Y10
G0 F3000 X62.209 Y124.774
M204 S1800
M205 X8 Y8
G1 F1500 X71.224 Y133.788 E220.70708
M204 S3000
M205 X10 Y10
G0 F3000 X72.015 Y133.788
M204 S1800
M205 X8 Y8
G1 F1500 X62.209 Y123.982 E221.35282
M204 S3000
M205 X10 Y10
G0 F3000 X62.209 Y123.19
M204 S1800
M205 X8 Y8
G1 F1500 X72.807 Y133.788 E222.05072
M204 S3000
M205 X10 Y10
G0 F3000 X73.599 Y133.788
M204 S1800
M205 X8 Y8
G1 F1500 X62.209 Y122.398 E222.80077
M204 S3000
M205 X10 Y10
G0 F3000 X62.209 Y121.606
M204 S1800
M205 X8 Y8
G1 F1500 X74.391 Y133.788 E223.60297
M204 S3000
M205 X10 Y10
G0 F3000 X75.183 Y133.788
M204 S1800
M205 X8 Y8
G1 F1500 X62.209 Y120.814 E224.45733
M204 S3000
M205 X10 Y10
G0 F3000 X62.209 Y120.022
M204 S1800
M205 X8 Y8
G1 F1500 X75.975 Y133.788 E225.36385
M204 S3000
M205 X10 Y10
G0 F3000 X76.767 Y133.788
M204 S1800
M205 X8 Y8
G1 F1500 X62.209 Y119.23 E226.32252
M204 S3000
M205 X10 Y10
G0 F3000 X62.209 Y118.438
M204 S1800
M205 X8 Y8
G1 F1500 X77.559 Y133.788 E227.33334
M204 S3000
M205 X10 Y10
G0 F3000 X78.351 Y133.788
M204 S1800
M205 X8 Y8
G1 F1500 X62.209 Y117.647 E228.39628
M204 S3000
M205 X10 Y10
G0 F3000 X62.209 Y116.855
M204 S1800
M205 X8 Y8
G1 F1500 X73.483 Y128.128 E229.13866
M204 S3000
M205 X10 Y10
G0 F3000 X73.905 Y128.55
M204 S1800
M205 X8 Y8
G1 F1500 X79.143 Y133.788 E229.4836
M204 S3000
M205 X10 Y10
G0 F3000 X79.935 Y133.788
M204 S1800
M205 X8 Y8
G1 F1500 X74.697 Y128.55 E229.82853
M204 S3000
M205 X10 Y10
G0 F3000 X75.489 Y128.55
M204 S1800
M205 X8 Y8
G1 F1500 X80.727 Y133.788 E230.17346
M204 S3000
M205 X10 Y10
G0 F3000 X81.519 Y133.788
M204 S1800
M205 X8 Y8
G1 F1500 X76.281 Y128.55 E230.51839
M204 S3000
M205 X10 Y10
G0 F3000 X77.073 Y128.55
M204 S1800
M205 X8 Y8
G1 F1500 X82.311 Y133.788 E230.86332
M204 S3000
M205 X10 Y10
G0 F3000 X83.103 Y133.788
M204 S1800
M205 X8 Y8
G1 F1500 X77.865 Y128.55 E231.20825
M204 S3000
M205 X10 Y10
G0 F3000 X78.657 Y128.55
M204 S1800
M205 X8 Y8
G1 F1500 X83.895 Y133.788 E231.55318
M204 S3000
M205 X10 Y10
G0 F3000 X84.687 Y133.788
M204 S1800
M205 X8 Y8
G1 F1500 X79.449 Y128.55 E231.89811
M204 S3000
M205 X10 Y10
G0 F3000 X80.241 Y128.55
M204 S1800
M205 X8 Y8
G1 F1500 X85.479 Y133.788 E232.24304
M204 S3000
M205 X10 Y10
G0 F3000 X86.271 Y133.788
M204 S1800
M205 X8 Y8
G1 F1500 X81.033 Y128.55 E232.58798
M204 S3000
M205 X10 Y10
G0 F3000 X81.824 Y128.55
M204 S1800
M205 X8 Y8
G1 F1500 X87.063 Y133.788 E232.93294
M204 S3000
M205 X10 Y10
G0 F3000 X87.855 Y133.788
M204 S1800
M205 X8 Y8
G1 F1500 X82.616 Y128.55 E233.2779
M204 S3000
M205 X10 Y10
G0 F3000 X83.408 Y128.55
M204 S1800
M205 X8 Y8
G1 F1500 X88.647 Y133.788 E233.62287
M204 S3000
M205 X10 Y10
G0 F3000 X89.439 Y133.788
M204 S1800
M205 X8 Y8
